;FLAVOR:Marlin
;TIME:664
;Filament used: 0.9756m
;Layer height: 0.4
;MINX:108.921
;MINY:60.581
;MINZ:0.2
;MAXX:171.081
;MAXY:119.419
;MAXZ:3
;TARGET_MACHINE.NAME:Prusa i3 Mk3/Mk3s
;Generated with Cura_SteamEngine 5.6.0
M82 ;absolute extrusion mode
G21 ; set units to millimeters
G90 ; use absolute positioning
M82 ; absolute extrusion mode
M104 S200 ; set extruder temp
M140 S60 ; set bed temp
M190 S60 ; wait for bed temp
M109 S200 ; wait for extruder temp
G28 W ; home all without mesh bed level
G80 ; mesh bed leveling
G92 E0.0 ; reset extruder distance position
G1 Y-3.0 F1000.0 ; go outside print area
G1 X60.0 E9.0 F1000.0 ; intro line
G1 X100.0 E21.5 F1000.0 ; intro line
G92 E0.0 ; reset extruder distance position
G92 E0
G92 E0
G1 F2100 E-0.8
;LAYER_COUNT:8
;LAYER:0
M107
G0 F3600 X115.315 Y62.936 Z0.2
;TYPE:SKIRT
G1 F2100 E0
G1 F1800 X115.667 Y62.346 E0.02285
G1 X116.017 Y61.859 E0.0428
G1 X116.419 Y61.456 E0.06173
G1 X116.879 Y61.122 E0.08064
G1 X117.327 Y60.889 E0.09743
G1 X117.906 Y60.691 E0.11778
G1 X118.706 Y60.591 E0.1446
G1 X119.39 Y60.581 E0.16735
G1 X130.595 Y60.581 E0.54003
G1 X131.507 Y60.601 E0.57037
G1 X133.281 Y60.734 E0.62954
G1 X136.003 Y60.885 E0.72022
G1 X138.754 Y60.96 E0.81175
G1 X141.449 Y60.956 E0.90138
G1 X144.203 Y60.875 E0.99302
G1 X146.955 Y60.716 E1.08471
G1 X148.711 Y60.591 E1.14326
G1 X149.39 Y60.581 E1.16585
G1 X160.592 Y60.581 E1.53843
G1 X161.293 Y60.591 E1.56174
G1 X161.89 Y60.651 E1.5817
G1 X162.44 Y60.797 E1.60063
G1 X162.903 Y60.999 E1.61743
G1 X163.385 Y61.301 E1.63635
G1 X163.844 Y61.701 E1.6566
G1 X164.332 Y62.345 E1.68347
G1 X164.714 Y62.987 E1.70832
G1 X170.312 Y72.684 E2.08073
G1 X170.643 Y73.282 E2.10346
G1 X170.853 Y73.742 E2.12028
G1 X171.022 Y74.351 E2.1413
G1 X171.078 Y74.853 E2.1581
G1 X171.046 Y75.508 E2.17991
G1 X170.914 Y76.44 E2.21122
G1 X170.568 Y79.156 E2.30228
G1 X170.301 Y81.852 E2.39239
G1 X170.11 Y84.559 E2.48265
G1 X169.995 Y87.292 E2.57363
G1 X169.957 Y90.034 E2.66484
G1 X169.997 Y92.763 E2.75561
G1 X170.112 Y95.469 E2.8457
G1 X170.305 Y98.197 E2.93666
G1 X170.574 Y100.892 E3.02674
G1 X170.919 Y103.592 E3.11727
G1 X171.047 Y104.491 E3.14747
G1 X171.081 Y105.091 E3.16746
G1 X171.021 Y105.656 E3.18636
G1 X170.894 Y106.145 E3.20316
G1 X170.627 Y106.751 E3.22519
G1 X170.266 Y107.397 E3.2498
G1 X164.691 Y117.053 E3.62065
G1 X164.311 Y117.685 E3.64518
G1 X164.018 Y118.097 E3.66199
G1 X163.575 Y118.548 E3.68302
G1 X163.115 Y118.881 E3.7019
G1 X162.608 Y119.138 E3.72081
G1 X162.091 Y119.309 E3.73892
G1 X161.293 Y119.409 E3.76567
G1 X160.61 Y119.419 E3.78839
G1 X149.405 Y119.419 E4.16107
G1 X148.493 Y119.399 E4.19141
G1 X146.719 Y119.266 E4.25058
G1 X143.997 Y119.115 E4.34125
G1 X141.246 Y119.04 E4.43279
G1 X138.551 Y119.044 E4.52242
G1 X135.797 Y119.125 E4.61406
G1 X133.05 Y119.283 E4.70558
G1 X131.293 Y119.409 E4.76416
G1 X130.61 Y119.419 E4.78688
G1 X119.408 Y119.419 E5.15946
G1 X118.707 Y119.409 E5.18278
G1 X118.11 Y119.349 E5.20274
G1 X117.56 Y119.203 E5.22166
G1 X117.097 Y119.001 E5.23847
G1 X116.615 Y118.699 E5.25738
G1 X116.156 Y118.299 E5.27763
G1 X115.668 Y117.655 E5.30451
G1 X115.28 Y117.003 E5.32974
G1 X109.688 Y107.316 E5.70176
G1 X109.357 Y106.718 E5.7245
G1 X109.147 Y106.258 E5.74132
G1 X108.978 Y105.649 E5.76234
G1 X108.922 Y105.147 E5.77914
G1 X108.954 Y104.492 E5.80095
G1 X109.086 Y103.56 E5.83226
G1 X109.432 Y100.844 E5.92332
G1 X109.7 Y98.144 E6.01356
G1 X109.891 Y95.424 E6.10425
G1 X110.005 Y92.708 E6.19467
G1 X110.043 Y89.964 E6.28594
G1 X110.003 Y87.208 E6.37762
G1 X109.887 Y84.517 E6.4672
G1 X109.694 Y81.79 E6.55813
G1 X109.424 Y79.088 E6.64845
G1 X109.079 Y76.399 E6.73862
G1 X108.95 Y75.471 E6.76978
G1 X108.921 Y74.903 E6.7887
G1 X108.981 Y74.338 E6.80759
G1 X109.13 Y73.786 E6.82661
G1 X109.374 Y73.246 E6.84632
G1 X109.734 Y72.603 E6.87083
G1 X115.315 Y62.936 E7.24209
G0 F3600 X115.659 Y63.141
G1 F1800 X116.011 Y62.551 E7.26494
G1 X116.303 Y62.139 E7.28174
G1 X116.657 Y61.778 E7.29855
G1 X117.064 Y61.477 E7.31539
G1 X117.512 Y61.244 E7.33219
G1 X117.992 Y61.084 E7.34901
G1 X118.712 Y60.991 E7.37316
G1 X119.396 Y60.981 E7.39591
G1 X130.586 Y60.981 E7.76809
G1 X131.477 Y61 E7.79773
G1 X133.251 Y61.133 E7.8569
G1 X135.992 Y61.285 E7.94821
G1 X138.744 Y61.36 E8.03978
G1 X141.461 Y61.356 E8.13014
G1 X144.215 Y61.275 E8.22178
G1 X146.984 Y61.115 E8.31403
G1 X148.717 Y60.991 E8.37182
G1 X149.396 Y60.981 E8.39441
G1 X160.586 Y60.981 E8.76659
G1 X161.287 Y60.991 E8.7899
G1 X161.79 Y61.038 E8.80671
G1 X162.28 Y61.164 E8.82354
G1 X162.743 Y61.366 E8.84034
G1 X163.17 Y61.638 E8.85717
G1 X163.548 Y61.973 E8.87397
G1 X163.988 Y62.55 E8.89811
G1 X164.368 Y63.187 E8.92278
G1 X169.962 Y72.878 E9.29495
G1 X170.279 Y73.448 E9.31664
G1 X170.489 Y73.908 E9.33346
G1 X170.624 Y74.395 E9.35027
G1 X170.68 Y74.897 E9.36707
G1 X170.65 Y75.452 E9.38555
G1 X170.518 Y76.384 E9.41686
G1 X170.171 Y79.105 E9.5081
G1 X169.903 Y81.813 E9.5986
G1 X169.71 Y84.542 E9.6896
G1 X169.595 Y87.275 E9.78058
G1 X169.557 Y90.028 E9.87215
G1 X169.597 Y92.78 E9.96369
G1 X169.712 Y95.488 E10.05384
G1 X169.907 Y98.237 E10.14551
G1 X170.177 Y100.943 E10.23595
G1 X170.523 Y103.648 E10.32666
G1 X170.651 Y104.547 E10.35686
G1 X170.683 Y105.052 E10.37369
G1 X170.634 Y105.555 E10.3905
G1 X170.507 Y106.044 E10.4073
G1 X170.278 Y106.556 E10.42596
G1 X169.92 Y107.197 E10.45038
G1 X164.348 Y116.847 E10.821
G1 X163.985 Y117.453 E10.84449
G1 X163.692 Y117.865 E10.86131
G1 X163.337 Y118.226 E10.87815
G1 X162.931 Y118.526 E10.89494
G1 X162.482 Y118.758 E10.91175
G1 X162.002 Y118.917 E10.92857
G1 X161.287 Y119.009 E10.95254
G1 X160.604 Y119.019 E10.97526
G1 X149.414 Y119.019 E11.34744
G1 X148.523 Y119 E11.37708
G1 X146.749 Y118.867 E11.43625
G1 X144.008 Y118.715 E11.52756
G1 X141.256 Y118.64 E11.61913
G1 X138.539 Y118.644 E11.70949
G1 X135.785 Y118.725 E11.80113
G1 X133.021 Y118.884 E11.89321
G1 X131.287 Y119.009 E11.95104
G1 X130.604 Y119.019 E11.97376
G1 X119.414 Y119.019 E12.34594
G1 X118.713 Y119.009 E12.36925
G1 X118.21 Y118.962 E12.38606
G1 X117.72 Y118.836 E12.40289
G1 X117.257 Y118.634 E12.41969
G1 X116.83 Y118.362 E12.43652
G1 X116.452 Y118.027 E12.45332
G1 X116.012 Y117.45 E12.47746
G1 X115.626 Y116.803 E12.50252
G1 X110.038 Y107.122 E12.8743
G1 X109.721 Y106.552 E12.89599
G1 X109.511 Y106.092 E12.91281
G1 X109.376 Y105.605 E12.92962
G1 X109.32 Y105.103 E12.94642
G1 X109.35 Y104.548 E12.9649
G1 X109.482 Y103.616 E12.99621
G1 X109.829 Y100.895 E13.08745
G1 X110.098 Y98.183 E13.17809
G1 X110.291 Y95.441 E13.26952
G1 X110.405 Y92.725 E13.35993
G1 X110.443 Y89.97 E13.45157
G1 X110.403 Y87.202 E13.54364
G1 X110.287 Y84.5 E13.63359
G1 X110.093 Y81.762 E13.72489
G1 X109.822 Y79.048 E13.81561
G1 X109.476 Y76.348 E13.90614
G1 X109.349 Y75.447 E13.93641
G1 X109.319 Y74.942 E13.95323
G1 X109.368 Y74.439 E13.97004
G1 X109.495 Y73.95 E13.98685
G1 X109.723 Y73.441 E14.0054
G1 X110.08 Y72.803 E14.02971
G1 X115.659 Y63.141 E14.4008
G1 F2100 E13.6008
;MESH:CH-2(Gearbox_Output_Spacer).stl(3)
G0 F3600 X117.853 Y64.41
G0 X118.793 Y64.952
G0 X117.466 Y74.486
G0 X117.466 Y75.514
G0 X117.605 Y76.537
G0 X117.884 Y77.529
G0 X118.294 Y78.475
G0 X118.83 Y79.355
G0 X119.48 Y80.155
G0 X120.234 Y80.859
G0 X121.077 Y81.454
G0 X121.819 Y81.837
G0 X124.98 Y83.012
G0 X125 Y82.712
;TYPE:WALL-INNER
G1 F2100 E14.4008
G1 F1800 X123.906 Y82.634 E14.43728
G1 X122.961 Y82.436 E14.46939
G1 X121.889 Y82.056 E14.50722
G1 X121.028 Y81.611 E14.53945
G1 X120.104 Y80.958 E14.57709
G1 X119.337 Y80.236 E14.61212
G1 X118.677 Y79.413 E14.64721
G1 X118.166 Y78.575 E14.67985
G1 X117.719 Y77.542 E14.71729
G1 X117.457 Y76.603 E14.74971
G1 X117.31 Y75.568 E14.78448
G1 X117.31 Y74.432 E14.82227
G1 X117.457 Y73.397 E14.85704
G1 X117.734 Y72.413 E14.89104
G1 X118.173 Y71.413 E14.92736
G1 X118.677 Y70.587 E14.95954
G1 X119.337 Y69.764 E14.99463
G1 X120.104 Y69.042 E15.02967
G1 X121.028 Y68.389 E15.0673
G1 X121.889 Y67.944 E15.09954
G1 X122.961 Y67.564 E15.13736
G1 X123.926 Y67.362 E15.17016
G1 X125 Y67.288 E15.20596
G1 X126.094 Y67.366 E15.24244
G1 X127.039 Y67.564 E15.27455
G1 X128.111 Y67.944 E15.31238
G1 X128.972 Y68.389 E15.34462
G1 X129.896 Y69.042 E15.38225
G1 X130.663 Y69.764 E15.41729
G1 X131.277 Y70.521 E15.4497
G1 X131.834 Y71.425 E15.48502
G1 X132.281 Y72.458 E15.52246
G1 X132.543 Y73.397 E15.55488
G1 X132.69 Y74.432 E15.58965
G1 X132.69 Y75.568 E15.62743
G1 X132.543 Y76.603 E15.6622
G1 X132.266 Y77.587 E15.6962
G1 X131.827 Y78.587 E15.73253
G1 X131.277 Y79.479 E15.76738
G1 X130.658 Y80.244 E15.80011
G1 X129.896 Y80.958 E15.83484
G1 X128.972 Y81.611 E15.87248
G1 X128.111 Y82.056 E15.90471
G1 X127.039 Y82.436 E15.94254
G1 X126.074 Y82.638 E15.97533
G1 X125 Y82.712 E16.01114
G0 F3600 X124.98 Y83.012
G0 X130.735 Y84.933
G0 X130.9 Y85.218
G1 F1800 X136.8 Y75 E16.40358
G1 X130.9 Y64.782 E16.79601
G1 X119.1 Y64.781 E17.18848
G1 X113.2 Y75 E17.58095
G1 X119.1 Y85.219 E17.97342
G1 X130.9 Y85.218 E18.36589
G0 F3600 X131.131 Y85.618
;TYPE:WALL-OUTER
G1 F1800 X137.262 Y75 E18.77369
G1 X131.131 Y64.382 E19.18149
G1 X118.869 Y64.381 E19.58933
G1 X112.738 Y75 E19.99716
G1 X118.869 Y85.619 E20.40499
G1 X131.131 Y85.618 E20.81282
G0 F3600 X131.231 Y85.445
G0 X130.735 Y84.933
G0 X124.938 Y83.009
G0 X124.986 Y82.312
G1 F1800 X124.016 Y82.246 E20.84516
G1 X123.017 Y82.037 E20.8791
G1 X122.073 Y81.7 E20.91244
G1 X121.188 Y81.241 E20.9456
G1 X120.377 Y80.665 E20.97869
G1 X119.648 Y79.984 E21.01187
G1 X119.019 Y79.205 E21.04517
G1 X118.512 Y78.375 E21.07752
G1 X118.114 Y77.46 E21.1107
G1 X117.837 Y76.469 E21.14493
G1 X117.706 Y75.514 E21.17699
G1 X117.706 Y74.486 E21.21118
G1 X117.837 Y73.531 E21.24324
G1 X118.114 Y72.54 E21.27747
G1 X118.512 Y71.625 E21.31065
G1 X119.034 Y70.774 E21.34386
G1 X119.648 Y70.016 E21.3763
G1 X120.398 Y69.318 E21.41038
G1 X121.188 Y68.759 E21.44257
G1 X122.098 Y68.289 E21.47663
G1 X123.017 Y67.963 E21.50906
G1 X123.995 Y67.756 E21.54231
G1 X125.014 Y67.688 E21.57628
G1 X125.984 Y67.754 E21.60862
G1 X126.983 Y67.963 E21.64256
G1 X127.927 Y68.3 E21.6759
G1 X128.812 Y68.759 E21.70906
G1 X129.623 Y69.335 E21.74215
G1 X130.352 Y70.016 E21.77533
G1 X130.966 Y70.773 E21.80775
G1 X131.488 Y71.625 E21.84098
G1 X131.886 Y72.54 E21.87417
G1 X132.163 Y73.531 E21.90839
G1 X132.294 Y74.486 E21.94045
G1 X132.294 Y75.514 E21.97464
G1 X132.163 Y76.469 E22.0067
G1 X131.886 Y77.46 E22.04093
G1 X131.488 Y78.375 E22.07411
G1 X130.966 Y79.227 E22.10735
G1 X130.333 Y80.004 E22.14068
G1 X129.602 Y80.682 E22.17384
G1 X128.812 Y81.241 E22.20603
G1 X127.902 Y81.711 E22.2401
G1 X126.983 Y82.037 E22.27253
G1 X126.005 Y82.244 E22.30578
G1 X124.986 Y82.312 E22.33974
G0 F3600 X124.787 Y82.299
G0 X124.739 Y82.995
G0 X130.681 Y84.838
;TYPE:SKIN
G1 F1800 X119.319 Y84.838 E22.71765
G1 X113.639 Y75 E23.09548
G1 X119.319 Y65.161 E23.47334
G1 X130.681 Y65.162 E23.85124
G1 X136.361 Y75 E24.22908
G1 X130.681 Y84.838 E24.60691
G0 F3600 X125.017 Y83.095
G1 F1800 X126.142 Y83.013 E24.64443
G1 X127.169 Y82.797 E24.67933
G1 X128.213 Y82.428 E24.71616
G1 X129.216 Y81.911 E24.75369
G1 X130.091 Y81.292 E24.78934
G1 X130.951 Y80.49 E24.82845
G1 X131.613 Y79.668 E24.86356
G1 X132.178 Y78.741 E24.89967
G1 X132.619 Y77.732 E24.93629
G1 X132.929 Y76.624 E24.97456
G1 X133.074 Y75.57 E25.00994
G1 X133.074 Y74.425 E25.04803
G1 X132.929 Y73.376 E25.08325
G1 X132.618 Y72.262 E25.12172
G1 X132.177 Y71.257 E25.15822
G1 X131.609 Y70.325 E25.19452
G1 X130.925 Y69.484 E25.23058
G1 X130.117 Y68.729 E25.26736
G1 X129.211 Y68.086 E25.30431
G1 X128.213 Y67.572 E25.34165
G1 X127.194 Y67.21 E25.37761
G1 X126.094 Y66.979 E25.415
G1 X124.983 Y66.905 E25.45203
G1 X123.858 Y66.987 E25.48955
G1 X122.831 Y67.203 E25.52445
G1 X121.787 Y67.571 E25.56127
G1 X120.775 Y68.094 E25.59916
G1 X119.909 Y68.707 E25.63445
G1 X119.07 Y69.487 E25.67255
G1 X118.368 Y70.364 E25.70991
G1 X117.822 Y71.259 E25.74478
G1 X117.381 Y72.266 E25.78135
G1 X117.071 Y73.376 E25.81968
G1 X116.926 Y74.43 E25.85507
G1 X116.926 Y75.573 E25.89308
G1 X117.071 Y76.624 E25.92837
G1 X117.381 Y77.733 E25.96667
G1 X117.822 Y78.741 E26.00326
G1 X118.367 Y79.635 E26.03809
G1 X119.07 Y80.513 E26.0755
G1 X119.889 Y81.276 E26.11273
G1 X120.775 Y81.906 E26.14889
G1 X121.763 Y82.418 E26.1859
G1 X122.806 Y82.79 E26.22273
G1 X123.906 Y83.021 E26.26011
G1 X125.017 Y83.095 E26.29715
G0 F3600 X119.71 Y84.637
G1 F1800 X119.057 Y83.985 E26.32784
G1 X118.987 Y83.915
G0 F3600 X120.276 Y84.637
G1 F1800 X118.284 Y82.646 E26.42151
G1 X118.214 Y82.576
G0 F3600 X117.511 Y81.308
G1 F1800 X120.841 Y84.637 E26.57812
G0 F3600 X121.407 Y84.637
G1 F1800 X116.738 Y79.968 E26.79774
G1 X116.668 Y79.898
G0 F3600 X118.182 Y79.716
G1 F1800 X114.419 Y75.953 E26.97474
G1 X114.349 Y75.883
G0 F3600 X113.929 Y74.896
G1 F1800 X117.477 Y78.445 E27.14165
G1 X117.547 Y78.515
G0 F3600 X117.11 Y77.512
G1 F1800 X114.135 Y74.537 E27.28158
G0 F3600 X114.342 Y74.179
G1 F1800 X116.895 Y76.731 E27.40164
G0 F3600 X116.791 Y76.062
G1 F1800 X114.549 Y73.82 E27.5071
G0 F3600 X114.757 Y73.462
G1 F1800 X116.727 Y75.432 E27.59976
G0 F3600 X116.727 Y74.867
G1 F1800 X114.963 Y73.102 E27.68276
G0 F3600 X115.17 Y72.744
G1 F1800 X116.74 Y74.314 E27.75661
G0 F3600 X116.81 Y73.818
G1 F1800 X115.377 Y72.385 E27.82401
G0 F3600 X115.585 Y72.027
G1 F1800 X116.879 Y73.322 E27.8849
G0 F3600 X117.002 Y72.878
G1 F1800 X115.792 Y71.668 E27.94182
G0 F3600 X115.998 Y71.309
G1 F1800 X117.126 Y72.437 E27.99487
G0 F3600 X117.272 Y72.017
G1 F1800 X116.205 Y70.951 E28.04504
G0 F3600 X116.413 Y70.592
G1 F1800 X117.445 Y71.624 E28.09358
G0 F3600 X117.618 Y71.232
G1 F1800 X116.62 Y70.234 E28.14052
G0 F3600 X116.826 Y69.874
G1 F1800 X117.823 Y70.871 E28.18742
G0 F3600 X118.038 Y70.521
G1 F1800 X117.033 Y69.516 E28.23469
G0 F3600 X117.241 Y69.157
G1 F1800 X118.26 Y70.177 E28.28264
G0 F3600 X118.512 Y69.863
G1 F1800 X117.448 Y68.799 E28.33269
G0 F3600 X117.654 Y68.44
G1 F1800 X118.764 Y69.549 E28.38488
G0 F3600 X119.031 Y69.251
G1 F1800 X117.861 Y68.081 E28.43991
G0 F3600 X118.069 Y67.723
G1 F1800 X119.324 Y68.978 E28.49894
G0 F3600 X119.617 Y68.706
G1 F1800 X118.276 Y67.364 E28.56204
G0 F3600 X118.482 Y67.005
G1 F1800 X119.926 Y68.449 E28.62997
G0 F3600 X120.259 Y68.216
G1 F1800 X118.689 Y66.646 E28.70381
G0 F3600 X118.897 Y66.288
G1 F1800 X120.59 Y67.981 E28.78345
G0 F3600 X120.95 Y67.776
G1 F1800 X119.104 Y65.929 E28.8703
G0 F3600 X119.311 Y65.571
G1 F1800 X121.324 Y67.584 E28.96499
G0 F3600 X121.698 Y67.392
G1 F1800 X119.667 Y65.361 E29.06052
G0 F3600 X120.232 Y65.361
G1 F1800 X122.114 Y67.243 E29.14904
G0 F3600 X122.533 Y67.095
G1 F1800 X120.798 Y65.361 E29.23063
G0 F3600 X121.364 Y65.361
G1 F1800 X122.97 Y66.967 E29.30617
G0 F3600 X123.438 Y66.87
G1 F1800 X121.929 Y65.361 E29.37715
G0 F3600 X122.495 Y65.361
G1 F1800 X123.916 Y66.782 E29.44399
G0 F3600 X124.443 Y66.743
G1 F1800 X123.061 Y65.361 E29.50899
G0 F3600 X123.627 Y65.361
G1 F1800 X124.97 Y66.704 E29.57216
G0 F3600 X125.575 Y66.744
G1 F1800 X124.192 Y65.361 E29.63721
G0 F3600 X124.758 Y65.361
G1 F1800 X126.193 Y66.796 E29.70471
G0 F3600 X126.91 Y66.947
G1 F1800 X125.324 Y65.362 E29.77929
G0 F3600 X125.89 Y65.362
G1 F1800 X127.711 Y67.182 E29.86492
G1 X127.781 Y67.252
G0 F3600 X128.682 Y67.588
G1 F1800 X126.456 Y65.362 E29.96962
G0 F3600 X127.021 Y65.362
G1 F1800 X130.217 Y68.558 E30.11995
G1 X130.287 Y68.628
G0 F3600 X131.339 Y69.679
G1 F1800 X135.405 Y73.745 E30.31121
G1 X135.475 Y73.815
G0 F3600 X136.116 Y75.022
G1 F1800 X132.423 Y71.329 E30.48491
G1 X132.353 Y71.259
G0 F3600 X132.84 Y72.312
G1 F1800 X135.909 Y75.381 E30.62927
G0 F3600 X135.702 Y75.74
G1 F1800 X133.055 Y73.092 E30.7538
G0 F3600 X133.187 Y73.79
G1 F1800 X135.495 Y76.098 E30.86236
G0 F3600 X135.288 Y76.457
G1 F1800 X133.271 Y74.439 E30.95726
G0 F3600 X133.271 Y75.005
G1 F1800 X135.081 Y76.815 E31.0424
G0 F3600 X134.874 Y77.174
G1 F1800 X133.271 Y75.571 E31.1178
G0 F3600 X133.204 Y76.069
G1 F1800 X134.667 Y77.532 E31.18661
G0 F3600 X134.459 Y77.891
G1 F1800 X133.134 Y76.566 E31.24893
G0 F3600 X133.025 Y77.022
G1 F1800 X134.253 Y78.25 E31.3067
G0 F3600 X134.046 Y78.609
G1 F1800 X132.9 Y77.462 E31.36062
G0 F3600 X132.764 Y77.893
G1 F1800 X133.839 Y78.967 E31.41117
