;FLAVOR:Marlin
;TIME:1350
;Filament used: 0.772036m
;Layer height: 0.15
;MINX:82.126
;MINY:62.126
;MINZ:0.2
;MAXX:167.874
;MAXY:147.874
;MAXZ:3.05
;Generated with Cura_SteamEngine 4.6.2
M82 ;absolute extrusion mode
G21 ; set units to millimeters
G90 ; use absolute positioning
M82 ; absolute extrusion mode
M104 S220 ; set extruder temp
M140 S60 ; set bed temp
M190 S60 ; wait for bed temp
M109 S220 ; wait for extruder temp
G28 W ; home all without mesh bed level
G80 ; mesh bed leveling
G92 E0.0 ; reset extruder distance position
G1 Y-3.0 F1000.0 ; go outside print area
G1 X60.0 E9.0 F1000.0 ; intro line
G1 X100.0 E21.5 F1000.0 ; intro line
G92 E0.0 ; reset extruder distance position
G92 E0
G92 E0
G1 F2100 E-0.8
;LAYER_COUNT:20
;LAYER:0
M107
G0 F3600 X125.997 Y62.151 Z0.2
;TYPE:SKIRT
G1 F2100 E0
G1 F900 X128.702 Y62.311 E0.09013
G1 X129.209 Y62.348 E0.10703
G1 X130.671 Y62.543 E0.15609
G1 X133.119 Y62.932 E0.23853
G1 X133.82 Y63.053 E0.26219
G1 X134.591 Y63.237 E0.28856
G1 X137.419 Y63.997 E0.38595
G1 X138.159 Y64.206 E0.41153
G1 X138.837 Y64.442 E0.43541
G1 X142.082 Y65.69 E0.55104
G1 X142.628 Y65.916 E0.5707
G1 X143.16 Y66.167 E0.59026
G1 X145.675 Y67.471 E0.68449
G1 X146.211 Y67.758 E0.70471
G1 X147.443 Y68.516 E0.75282
G1 X149.844 Y70.078 E0.84809
G1 X150.373 Y70.438 E0.86937
G1 X150.881 Y70.827 E0.89065
G1 X153.273 Y72.794 E0.99366
G1 X153.827 Y73.263 E1.0178
G1 X154.223 Y73.634 E1.03585
G1 X156.502 Y75.944 E1.14377
G1 X156.991 Y76.456 E1.16732
G1 X157.489 Y77.042 E1.1929
G1 X159.376 Y79.407 E1.29353
G1 X159.798 Y79.952 E1.31646
G1 X160.232 Y80.589 E1.34209
G1 X161.797 Y83.038 E1.43876
G1 X162.231 Y83.738 E1.46615
G1 X162.584 Y84.392 E1.49087
G1 X163.923 Y87.068 E1.5904
G1 X164.239 Y87.72 E1.61449
G1 X164.551 Y88.485 E1.64197
G1 X165.542 Y91.126 E1.73579
G1 X165.832 Y91.924 E1.76403
G1 X166.061 Y92.711 E1.79129
G1 X166.721 Y95.25 E1.87855
G1 X166.95 Y96.18 E1.9104
G1 X167.062 Y96.745 E1.92956
G1 X167.174 Y97.42 E1.95232
G1 X167.558 Y99.968 E2.03802
G1 X167.66 Y100.712 E2.063
G1 X167.715 Y101.43 E2.08695
G1 X167.851 Y104.436 E2.18703
G1 X167.874 Y105.192 E2.21219
G1 X167.852 Y105.959 E2.23771
G1 X167.689 Y108.702 E2.3291
G1 X167.652 Y109.209 E2.34601
G1 X167.457 Y110.671 E2.39507
G1 X167.068 Y113.119 E2.47751
G1 X166.947 Y113.82 E2.50117
G1 X166.781 Y114.523 E2.5252
G1 X166.005 Y117.409 E2.62459
G1 X165.794 Y118.156 E2.65041
G1 X165.558 Y118.837 E2.67438
G1 X164.311 Y122.08 E2.78995
G1 X164.084 Y122.629 E2.8097
G1 X163.833 Y123.16 E2.82924
G1 X162.529 Y125.675 E2.92346
G1 X162.242 Y126.211 E2.94369
G1 X161.476 Y127.454 E2.99225
G1 X159.929 Y129.833 E3.08663
G1 X159.565 Y130.369 E3.10818
G1 X159.172 Y130.882 E3.12968
G1 X157.206 Y133.273 E3.23263
G1 X156.737 Y133.827 E3.25677
G1 X156.206 Y134.386 E3.28242
G1 X154.18 Y136.38 E3.37697
G1 X153.537 Y136.999 E3.40665
G1 X152.949 Y137.496 E3.43226
G1 X150.677 Y139.309 E3.52894
G1 X150.051 Y139.795 E3.55529
G1 X149.43 Y140.221 E3.58034
G1 X146.989 Y141.78 E3.67668
G1 X146.275 Y142.225 E3.70466
G1 X145.6 Y142.588 E3.73015
G1 X142.891 Y143.943 E3.83089
G1 X142.278 Y144.24 E3.85355
G1 X141.521 Y144.551 E3.88077
G1 X138.889 Y145.538 E3.97426
G1 X138.064 Y145.836 E4.00344
G1 X137.33 Y146.05 E4.02887
G1 X134.532 Y146.778 E4.12503
G1 X133.745 Y146.973 E4.15199
G1 X132.932 Y147.121 E4.17948
G1 X130.225 Y147.529 E4.27053
G1 X129.284 Y147.66 E4.30213
G1 X128.449 Y147.721 E4.32998
G1 X125.839 Y147.838 E4.41687
G1 X124.812 Y147.874 E4.45105
G1 X123.998 Y147.849 E4.47814
G1 X121.298 Y147.689 E4.5681
G1 X120.791 Y147.652 E4.58501
G1 X119.329 Y147.457 E4.63406
G1 X116.881 Y147.068 E4.71651
G1 X116.18 Y146.947 E4.74017
G1 X115.409 Y146.763 E4.76653
G1 X112.581 Y146.003 E4.86393
G1 X111.841 Y145.794 E4.8895
G1 X111.163 Y145.558 E4.91338
G1 X107.918 Y144.31 E5.02901
G1 X107.372 Y144.084 E5.04867
G1 X106.84 Y143.833 E5.06823
G1 X104.325 Y142.529 E5.16246
G1 X103.788 Y142.242 E5.18271
G1 X102.545 Y141.476 E5.23127
G1 X100.156 Y139.923 E5.32604
G1 X99.625 Y139.56 E5.34744
G1 X99.12 Y139.173 E5.3686
G1 X96.727 Y137.206 E5.47163
G1 X96.172 Y136.736 E5.49582
G1 X95.614 Y136.206 E5.52141
G1 X93.62 Y134.18 E5.61596
G1 X93.001 Y133.537 E5.64565
G1 X92.504 Y132.949 E5.67125
G1 X90.677 Y130.659 E5.76869
G1 X90.205 Y130.053 E5.79424
G1 X89.772 Y129.419 E5.81977
G1 X88.22 Y126.988 E5.9157
G1 X87.775 Y126.272 E5.94374
G1 X87.415 Y125.605 E5.96895
G1 X86.057 Y122.891 E6.06989
G1 X85.76 Y122.278 E6.09254
G1 X85.459 Y121.546 E6.11887
G1 X84.454 Y118.865 E6.2141
G1 X84.164 Y118.063 E6.24246
G1 X83.95 Y117.33 E6.26786
G1 X83.229 Y114.558 E6.36312
G1 X83.024 Y113.73 E6.39149
G1 X82.88 Y112.94 E6.4182
G1 X82.472 Y110.229 E6.50939
G1 X82.34 Y109.285 E6.54109
G1 X82.28 Y108.47 E6.56827
G1 X82.162 Y105.829 E6.6562
G1 X82.126 Y104.815 E6.68994
G1 X82.151 Y103.999 E6.7171
G1 X82.311 Y101.298 E6.80709
G1 X82.348 Y100.791 E6.824
G1 X82.546 Y99.306 E6.87383
G1 X82.932 Y96.88 E6.95553
G1 X83.055 Y96.169 E6.97953
G1 X83.237 Y95.406 E7.00562
G1 X84 Y92.568 E7.10336
G1 X84.207 Y91.838 E7.1286
G1 X84.442 Y91.163 E7.15237
G1 X85.689 Y87.92 E7.26793
G1 X85.916 Y87.371 E7.28769
G1 X86.167 Y86.84 E7.30723
G1 X87.471 Y84.325 E7.40145
G1 X87.758 Y83.789 E7.42168
G1 X88.524 Y82.546 E7.47024
G1 X90.08 Y80.151 E7.56523
G1 X90.44 Y79.625 E7.58643
G1 X90.827 Y79.119 E7.60762
G1 X92.794 Y76.727 E7.71062
G1 X93.264 Y76.172 E7.73481
G1 X93.606 Y75.803 E7.75154
G1 X95.821 Y73.62 E7.85498
G1 X96.469 Y72.995 E7.88493
G1 X97.077 Y72.483 E7.91136
G1 X99.322 Y70.692 E8.00688
G1 X99.949 Y70.205 E8.03329
G1 X100.57 Y69.779 E8.05833
G1 X103.011 Y68.22 E8.15467
G1 X103.725 Y67.775 E8.18265
G1 X104.4 Y67.412 E8.20814
G1 X107.109 Y66.057 E8.30889
G1 X107.722 Y65.76 E8.33154
G1 X108.479 Y65.449 E8.35876
G1 X111.129 Y64.456 E8.45289
G1 X111.935 Y64.165 E8.48139
G1 X112.718 Y63.937 E8.50851
G1 X115.405 Y63.238 E8.60086
G1 X116.253 Y63.028 E8.62991
G1 X117.068 Y62.879 E8.65747
G1 X119.775 Y62.471 E8.74852
G1 X120.716 Y62.34 E8.78012
G1 X121.551 Y62.279 E8.80797
G1 X124.161 Y62.162 E8.89486
G1 X125.165 Y62.126 E8.92828
G1 X125.997 Y62.151 E8.95596
G1 F2100 E8.15596
;MESH:o-ring.stl
G0 F3600 X129.186 Y64.88
G0 X129.111 Y66.161
G0 X133.083 Y67.179
;TYPE:WALL-INNER
G1 F2100 E8.95596
G1 F900 X136.975 Y68.225 E9.09
G1 X140.997 Y69.777 E9.23339
G1 X144.367 Y71.525 E9.35966
G1 X147.973 Y73.872 E9.50276
G1 X151.098 Y76.442 E9.63733
G1 X153.942 Y79.33 E9.77214
G1 X156.466 Y82.493 E9.90674
G1 X158.646 Y85.907 E10.04146
G1 X160.46 Y89.531 E10.17625
G1 X161.88 Y93.321 E10.31087
G1 X162.836 Y96.996 E10.43717
G1 X162.93 Y97.447 E10.45249
G1 X163.502 Y101.246 E10.58027
G1 X163.683 Y105.301 E10.71527
G1 X163.46 Y109.067 E10.84075
G1 X162.821 Y113.083 E10.976
G1 X161.775 Y116.975 E11.11004
G1 X160.223 Y120.997 E11.25343
G1 X158.475 Y124.367 E11.3797
G1 X156.128 Y127.973 E11.5228
G1 X153.558 Y131.098 E11.65737
G1 X150.67 Y133.942 E11.79218
G1 X147.506 Y136.466 E11.9268
G1 X144.096 Y138.644 E12.06138
G1 X140.469 Y140.46 E12.19629
G1 X136.679 Y141.88 E12.3309
G1 X132.771 Y142.897 E12.46521
G1 X128.754 Y143.503 E12.60033
G1 X124.698 Y143.683 E12.73537
G1 X120.933 Y143.46 E12.86081
G1 X116.917 Y142.821 E12.99606
G1 X113.025 Y141.775 E13.1301
G1 X109.003 Y140.223 E13.27349
G1 X105.633 Y138.475 E13.39976
G1 X102.027 Y136.128 E13.54286
G1 X98.902 Y133.558 E13.67743
G1 X96.058 Y130.67 E13.81224
G1 X93.534 Y127.506 E13.94686
G1 X91.354 Y124.093 E14.08156
G1 X89.54 Y120.469 E14.21635
G1 X88.12 Y116.679 E14.35096
G1 X87.103 Y112.771 E14.48527
G1 X86.497 Y108.754 E14.62039
G1 X86.317 Y104.698 E14.75543
G1 X86.54 Y100.933 E14.88087
G1 X87.179 Y96.917 E15.01612
G1 X88.225 Y93.025 E15.15017
G1 X89.777 Y89.003 E15.29355
G1 X91.525 Y85.633 E15.41982
G1 X93.872 Y82.027 E15.56292
G1 X96.442 Y78.902 E15.69749
G1 X99.33 Y76.058 E15.83231
G1 X102.494 Y73.534 E15.96692
G1 X105.904 Y71.356 E16.1015
G1 X109.531 Y69.54 E16.23641
G1 X113.321 Y68.12 E16.37102
G1 X117.229 Y67.103 E16.50533
G1 X121.246 Y66.497 E16.64045
G1 X125.302 Y66.317 E16.77549
G1 X129.067 Y66.54 E16.90093
G1 X133.083 Y67.179 E17.03618
G0 F3600 X126.024 Y67.71
G0 X116.266 Y68.516
G1 F900 X112.302 Y69.7 E17.17378
G1 X108.497 Y71.31 E17.3112
G1 X104.891 Y73.332 E17.44871
G1 X101.529 Y75.735 E17.58615
G1 X98.451 Y78.495 E17.72366
G1 X95.698 Y81.577 E17.86111
G1 X93.298 Y84.943 E17.9986
G1 X91.285 Y88.55 E18.13599
G1 X89.68 Y92.36 E18.2735
G1 X88.503 Y96.322 E18.41096
G1 X87.769 Y100.39 E18.54845
G1 X87.489 Y104.513 E18.6859
G1 X87.663 Y108.644 E18.82342
G1 X88.291 Y112.729 E18.96088
G1 X89.363 Y116.72 E19.09833
G1 X90.87 Y120.568 E19.23578
G1 X92.789 Y124.229 E19.37326
G1 X95.1 Y127.656 E19.51074
G1 X97.773 Y130.808 E19.64819
G1 X100.778 Y133.646 E19.78567
G1 X104.077 Y136.135 E19.92312
G1 X107.627 Y138.25 E20.06056
G1 X111.392 Y139.958 E20.19807
G1 X115.32 Y141.244 E20.33554
G1 X119.366 Y142.088 E20.473
G1 X123.481 Y142.483 E20.6105
G1 X127.354 Y142.429 E20.73933
G1 X131.454 Y141.943 E20.87665
G1 X135.731 Y140.946 E21.02272
G1 X139.622 Y139.547 E21.16024
G1 X143.335 Y137.73 E21.29773
G1 X146.824 Y135.513 E21.43522
G1 X150.049 Y132.927 E21.57271
G1 X152.968 Y130.002 E21.71015
G1 X155.548 Y126.775 E21.84757
G1 X157.759 Y123.281 E21.98509
G1 X159.571 Y119.568 E22.12251
G1 X160.963 Y115.675 E22.26002
G1 X161.919 Y111.654 E22.39749
G1 X162.428 Y107.552 E22.53497
G1 X162.48 Y103.42 E22.67241
G1 X162.105 Y99.563 E22.8013
G1 X161.228 Y95.263 E22.94726
G1 X159.937 Y91.335 E23.08478
G1 X158.221 Y87.575 E23.22225
G1 X156.102 Y84.026 E23.35973
G1 X153.608 Y80.731 E23.49717
G1 X150.764 Y77.732 E23.63464
G1 X147.607 Y75.062 E23.77216
G1 X144.177 Y72.759 E23.90957
G1 X140.514 Y70.844 E24.04705
G1 X136.663 Y69.345 E24.18449
G1 X132.669 Y68.279 E24.32198
G1 X128.582 Y67.657 E24.45948
G1 X124.452 Y67.489 E24.59696
G1 X120.586 Y67.758 E24.72586
G1 X116.266 Y68.516 E24.87174
G0 F3600 X116.358 Y68.906
G1 F900 X112.438 Y70.077 E25.00781
G1 X108.673 Y71.67 E25.14378
G1 X105.106 Y73.67 E25.2798
G1 X101.78 Y76.048 E25.41579
G1 X98.735 Y78.778 E25.55181
G1 X96.011 Y81.827 E25.68779
G1 X93.637 Y85.157 E25.82381
G1 X91.645 Y88.726 E25.95976
G1 X90.057 Y92.495 E26.09579
G1 X88.893 Y96.415 E26.23179
G1 X88.167 Y100.439 E26.36779
G1 X87.89 Y104.518 E26.50377
G1 X88.062 Y108.605 E26.63983
G1 X88.683 Y112.646 E26.77581
G1 X89.744 Y116.595 E26.91181
G1 X91.234 Y120.402 E27.04779
G1 X93.133 Y124.024 E27.18381
G1 X95.419 Y127.414 E27.3198
G1 X98.064 Y130.532 E27.45579
G1 X101.037 Y133.34 E27.59181
G1 X104.3 Y135.803 E27.72778
G1 X107.813 Y137.895 E27.86377
G1 X111.537 Y139.585 E27.99979
G1 X115.423 Y140.857 E28.13579
G1 X119.426 Y141.692 E28.2718
G1 X123.497 Y142.083 E28.40782
G1 X127.328 Y142.029 E28.53525
G1 X131.385 Y141.548 E28.67113
G1 X135.618 Y140.562 E28.81569
G1 X139.466 Y139.178 E28.95171
G1 X143.139 Y137.38 E29.08772
G1 X146.591 Y135.187 E29.22375
G1 X149.781 Y132.629 E29.35974
G1 X152.669 Y129.735 E29.49573
G1 X155.222 Y126.542 E29.6317
G1 X157.409 Y123.086 E29.76773
G1 X159.202 Y119.412 E29.9037
G1 X160.579 Y115.561 E30.03973
G1 X161.525 Y111.583 E30.17573
G1 X162.028 Y107.525 E30.31173
G1 X162.08 Y103.437 E30.44771
G1 X161.709 Y99.622 E30.57519
G1 X160.841 Y95.366 E30.71966
G1 X159.564 Y91.481 E30.85568
G1 X157.866 Y87.761 E30.99169
G1 X155.77 Y84.25 E31.12769
G1 X153.302 Y80.99 E31.26369
G1 X150.489 Y78.023 E31.39967
G1 X147.366 Y75.382 E31.53571
G1 X143.972 Y73.103 E31.67168
G1 X140.348 Y71.209 E31.80768
G1 X136.538 Y69.726 E31.94366
G1 X132.587 Y68.671 E32.07968
G1 X128.544 Y68.056 E32.2157
G1 X124.458 Y67.89 E32.35171
G1 X120.635 Y68.156 E32.47917
G1 X116.358 Y68.906 E32.62359
G0 F3600 X116.336 Y68.809
G0 X120.201 Y68.187
G0 X133.144 Y66.884
G0 X133.164 Y66.787
G1 F900 X137.1 Y67.845 E32.75915
G1 X141.162 Y69.412 E32.90396
G1 X144.567 Y71.178 E33.03154
G1 X148.212 Y73.551 E33.1762
G1 X151.37 Y76.148 E33.31219
G1 X154.24 Y79.062 E33.44822
G1 X156.79 Y82.258 E33.58421
G1 X158.997 Y85.714 E33.7206
G1 X160.827 Y89.371 E33.85661
G1 X162.261 Y93.197 E33.99251
G1 X163.228 Y96.915 E34.12028
G1 X163.326 Y97.387 E34.13632
G1 X163.901 Y101.206 E34.26477
G1 X164.084 Y105.297 E34.40097
G1 X163.858 Y109.113 E34.52811
G1 X163.213 Y113.164 E34.66455
G1 X162.155 Y117.1 E34.80011
G1 X160.588 Y121.162 E34.94491
G1 X158.822 Y124.567 E35.07249
G1 X156.449 Y128.212 E35.21715
G1 X153.852 Y131.37 E35.35314
G1 X150.938 Y134.24 E35.48918
G1 X147.741 Y136.79 E35.62519
G1 X144.289 Y138.995 E35.76143
G1 X140.629 Y140.827 E35.89756
G1 X136.803 Y142.261 E36.03346
G1 X132.846 Y143.291 E36.16945
G1 X128.794 Y143.902 E36.30575
G1 X124.702 Y144.084 E36.44198
G1 X120.887 Y143.858 E36.56909
G1 X116.836 Y143.213 E36.70553
G1 X112.9 Y142.155 E36.84108
G1 X108.838 Y140.588 E36.98589
G1 X105.433 Y138.822 E37.11347
G1 X101.788 Y136.449 E37.25813
G1 X98.63 Y133.852 E37.39412
G1 X95.76 Y130.938 E37.53015
G1 X93.21 Y127.741 E37.66617
G1 X91.003 Y124.286 E37.80253
G1 X89.173 Y120.629 E37.93854
G1 X87.739 Y116.803 E38.07444
G1 X86.709 Y112.846 E38.21043
G1 X86.098 Y108.794 E38.34673
G1 X85.916 Y104.702 E38.48296
G1 X86.142 Y100.887 E38.61007
G1 X86.787 Y96.836 E38.7465
G1 X87.845 Y92.9 E38.88206
G1 X89.412 Y88.838 E39.02687
G1 X91.178 Y85.433 E39.15445
G1 X93.551 Y81.788 E39.29911
G1 X96.148 Y78.63 E39.4351
G1 X99.062 Y75.76 E39.57113
G1 X102.259 Y73.21 E39.70715
G1 X105.711 Y71.005 E39.84339
G1 X109.371 Y69.173 E39.97952
G1 X113.197 Y67.739 E40.11541
G1 X117.154 Y66.709 E40.25141
G1 X121.206 Y66.098 E40.3877
G1 X125.298 Y65.916 E40.52394
G1 X129.113 Y66.142 E40.65105
G1 X133.164 Y66.787 E40.78748
G0 F3600 X133.245 Y66.395
;TYPE:WALL-OUTER
G1 F900 X137.225 Y67.465 E40.92456
G1 X141.327 Y69.047 E41.07079
G1 X144.767 Y70.831 E41.19967
G1 X148.451 Y73.23 E41.34589
G1 X151.642 Y75.854 E41.4833
G1 X154.538 Y78.794 E41.62056
G1 X157.114 Y82.023 E41.75794
G1 X159.348 Y85.521 E41.89599
G1 X161.194 Y89.211 E42.03322
G1 X162.642 Y93.073 E42.1704
G1 X163.62 Y96.834 E42.29966
G1 X163.722 Y97.327 E42.3164
G1 X164.3 Y101.166 E42.44552
G1 X164.485 Y105.293 E42.58293
G1 X164.256 Y109.159 E42.71174
G1 X163.605 Y113.245 E42.84935
G1 X162.535 Y117.225 E42.98643
G1 X160.953 Y121.327 E43.13266
G1 X159.169 Y124.767 E43.26154
G1 X156.77 Y128.451 E43.40776
G1 X154.146 Y131.642 E43.54517
G1 X151.206 Y134.538 E43.68243
G1 X147.976 Y137.114 E43.81984
G1 X144.482 Y139.346 E43.95774
G1 X140.789 Y141.194 E44.09509
G1 X136.927 Y142.642 E44.23227
G1 X132.921 Y143.685 E44.36995
G1 X128.834 Y144.301 E44.50742
G1 X124.706 Y144.485 E44.64486
G1 X120.841 Y144.256 E44.77363
G1 X116.755 Y143.605 E44.91125
G1 X112.775 Y142.535 E45.04832
G1 X108.673 Y140.953 E45.19455
G1 X105.233 Y139.169 E45.32344
G1 X101.549 Y136.77 E45.46966
G1 X98.358 Y134.146 E45.60706
G1 X95.462 Y131.206 E45.74432
G1 X92.886 Y127.976 E45.88173
G1 X90.652 Y124.479 E46.01975
G1 X88.806 Y120.789 E46.15698
G1 X87.358 Y116.927 E46.29417
G1 X86.315 Y112.921 E46.43185
G1 X85.699 Y108.834 E46.56932
G1 X85.515 Y104.706 E46.70675
G1 X85.744 Y100.841 E46.83553
G1 X86.395 Y96.755 E46.97314
G1 X87.465 Y92.775 E47.11022
G1 X89.047 Y88.673 E47.25645
G1 X90.831 Y85.233 E47.38533
G1 X93.23 Y81.549 E47.53155
G1 X95.854 Y78.358 E47.66896
G1 X98.794 Y75.462 E47.80622
G1 X102.024 Y72.886 E47.94363
G1 X105.518 Y70.654 E48.08153
G1 X109.211 Y68.806 E48.21888
G1 X113.073 Y67.358 E48.35606
G1 X117.079 Y66.315 E48.49374
G1 X121.166 Y65.699 E48.63121
G1 X125.294 Y65.515 E48.76865
G1 X129.159 Y65.744 E48.89742
G1 X133.245 Y66.395 E49.03504
G0 F3600 X133.438 Y66.446
G0 X133.309 Y66.928
G0 X120.631 Y68.117
G0 X116.308 Y68.817
G0 X116.45 Y69.296
G1 F900 X112.574 Y70.454 E49.16958
G1 X108.849 Y72.03 E49.30411
G1 X105.321 Y74.008 E49.43864
G1 X102.031 Y76.361 E49.57317
G1 X99.019 Y79.061 E49.70771
G1 X96.324 Y82.077 E49.84223
G1 X93.976 Y85.371 E49.97678
G1 X92.005 Y88.902 E50.11127
G1 X90.434 Y92.63 E50.24583
G1 X89.283 Y96.508 E50.38037
G1 X88.565 Y100.488 E50.51488
G1 X88.291 Y104.523 E50.6494
G1 X88.461 Y108.566 E50.78399
G1 X89.075 Y112.563 E50.91849
G1 X90.125 Y116.47 E51.05305
G1 X91.598 Y120.236 E51.18754
G1 X93.477 Y123.819 E51.32211
G1 X95.738 Y127.172 E51.45662
G1 X98.355 Y130.256 E51.59114
G1 X101.296 Y133.034 E51.7257
G1 X104.523 Y135.471 E51.8602
