;FLAVOR:Marlin
;TIME:11306
;Filament used: 22.7334m
;Layer height: 0.4
;MINX:63.543
;MINY:62.557
;MINZ:0.2
;MAXX:179.75
;MAXY:147.443
;MAXZ:59.8
;TARGET_MACHINE.NAME:Prusa i3 Mk3/Mk3s
;Generated with Cura_SteamEngine 5.6.0
M82 ;absolute extrusion mode
G21 ; set units to millimeters
G90 ; use absolute positioning
M82 ; absolute extrusion mode
M104 S200 ; set extruder temp
M140 S60 ; set bed temp
M190 S60 ; wait for bed temp
M109 S200 ; wait for extruder temp
G28 W ; home all without mesh bed level
G80 ; mesh bed leveling
G92 E0.0 ; reset extruder distance position
G1 Y-3.0 F1000.0 ; go outside print area
G1 X60.0 E9.0 F1000.0 ; intro line
G1 X100.0 E21.5 F1000.0 ; intro line
G92 E0.0 ; reset extruder distance position
G92 E0
G92 E0
G1 F2100 E-0.8
;LAYER_COUNT:150
;LAYER:0
M107
G0 F3600 X64.537 Y63.458 Z0.2
;TYPE:SKIRT
G1 F2100 E0
G1 F1800 X64.928 Y63.137 E0.01683
G1 X65.365 Y62.883 E0.03364
G1 X65.836 Y62.7 E0.05044
G1 X66.331 Y62.594 E0.06728
G1 X66.983 Y62.558 E0.089
G1 X116.881 Y62.557 E1.74861
G1 X117.853 Y62.571 E1.78095
G1 X120.182 Y62.637 E1.85844
G1 X122.932 Y62.637 E1.94991
G1 X125.99 Y62.558 E2.05165
G1 X175.889 Y62.557 E3.7113
G1 X176.587 Y62.567 E3.73451
G1 X177.09 Y62.614 E3.75132
G1 X177.58 Y62.74 E3.76814
G1 X178.044 Y62.942 E3.78498
G1 X178.47 Y63.214 E3.80179
G1 X178.848 Y63.549 E3.81859
G1 X179.168 Y63.94 E3.83539
G1 X179.423 Y64.377 E3.85222
G1 X179.606 Y64.848 E3.86903
G1 X179.713 Y65.342 E3.88584
G1 X179.749 Y65.997 E3.90766
G1 X179.75 Y109.55 E5.35623
G1 X179.739 Y110.257 E5.37975
G1 X179.683 Y110.842 E5.3993
G1 X179.407 Y111.848 E5.43399
G1 X178.722 Y114.484 E5.52458
G1 X178.106 Y117.167 E5.61614
G1 X177.559 Y119.894 E5.70865
G1 X177.104 Y122.554 E5.7984
G1 X176.722 Y125.243 E5.88874
G1 X176.412 Y127.979 E5.98032
G1 X176.18 Y130.722 E6.07188
G1 X176.027 Y133.443 E6.16252
G1 X175.94 Y137.523 E6.29825
G1 X175.94 Y143.551 E6.49875
G1 X175.93 Y144.278 E6.52293
G1 X175.883 Y144.781 E6.53973
G1 X175.757 Y145.271 E6.55656
G1 X175.556 Y145.735 E6.57338
G1 X175.284 Y146.161 E6.59019
G1 X174.949 Y146.54 E6.60701
G1 X174.558 Y146.86 E6.62382
G1 X174.122 Y147.115 E6.64062
G1 X173.651 Y147.299 E6.65743
G1 X173.156 Y147.405 E6.67427
G1 X172.712 Y147.442 E6.68909
G1 X165.139 Y147.443 E6.94097
G1 X164.244 Y147.428 E6.97074
G1 X163.478 Y147.331 E6.99642
G1 X160.679 Y147.013 E7.09012
G1 X158.003 Y146.786 E7.17944
G1 X155.259 Y146.631 E7.27085
G1 X152.503 Y146.553 E7.36255
G1 X149.786 Y146.553 E7.45292
G1 X147.036 Y146.631 E7.54442
G1 X144.283 Y146.788 E7.63614
G1 X141.61 Y147.015 E7.72536
G1 X138.202 Y147.409 E7.83947
G1 X137.575 Y147.442 E7.86035
G1 X130.221 Y147.443 E8.10494
G1 X129.52 Y147.433 E8.12826
G1 X128.525 Y147.367 E8.16143
G1 X125.766 Y147.211 E8.25334
G1 X123.011 Y147.132 E8.34501
G1 X120.293 Y147.132 E8.43541
G1 X117.543 Y147.209 E8.52691
G1 X114.813 Y147.363 E8.61786
G1 X113.685 Y147.442 E8.65546
G1 X106.132 Y147.443 E8.90668
G1 X105.237 Y147.428 E8.93645
G1 X104.471 Y147.331 E8.96213
G1 X101.672 Y147.013 E9.05583
G1 X98.996 Y146.786 E9.14515
G1 X96.252 Y146.631 E9.23656
G1 X93.496 Y146.553 E9.32826
G1 X90.779 Y146.553 E9.41863
G1 X88.029 Y146.631 E9.51013
G1 X85.276 Y146.788 E9.60185
G1 X82.603 Y147.015 E9.69107
G1 X79.195 Y147.409 E9.80518
G1 X78.568 Y147.442 E9.82606
G1 X71.219 Y147.443 E10.07049
G1 X70.521 Y147.434 E10.0937
G1 X70.017 Y147.387 E10.11054
G1 X69.527 Y147.262 E10.12736
G1 X69.063 Y147.061 E10.14418
G1 X68.637 Y146.79 E10.16097
G1 X68.258 Y146.455 E10.1778
G1 X67.937 Y146.064 E10.19462
G1 X67.682 Y145.628 E10.21142
G1 X67.498 Y145.157 E10.22824
G1 X67.391 Y144.663 E10.24505
G1 X67.354 Y144.21 E10.26017
G1 X67.353 Y137.586 E10.48048
G1 X67.313 Y134.789 E10.57352
G1 X67.198 Y132.072 E10.66397
G1 X67.003 Y129.325 E10.75557
G1 X66.735 Y126.62 E10.84597
G1 X66.387 Y123.896 E10.93731
G1 X65.962 Y121.196 E11.02822
G1 X65.459 Y118.487 E11.11986
G1 X64.887 Y115.831 E11.21023
G1 X64.24 Y113.189 E11.3007
G1 X64.024 Y112.418 E11.32733
G1 X63.997 Y112.28 E11.332
G1 X63.657 Y111.019 E11.37544
G1 X63.547 Y110.425 E11.39553
G1 X63.543 Y66.383 E12.86038
G1 X63.553 Y65.718 E12.8825
G1 X63.601 Y65.215 E12.8993
G1 X63.727 Y64.725 E12.91613
G1 X63.929 Y64.261 E12.93296
G1 X64.201 Y63.835 E12.94977
G1 X64.537 Y63.458 E12.96657
G1 F2100 E12.16657
;MESH:CH-4_DiffBarSupport.stl
G0 F3600 X67.157 Y65.092
G0 X67.157 Y66.171
G0 X78.366 Y92.37
G0 X79.447 Y94.687
G0 X80.915 Y96.779
G0 X82.723 Y98.586
G0 X84.818 Y100.05
G0 X87.128 Y101.127
G0 X92.117 Y102.471
G0 X92.143 Y102.17
;TYPE:WALL-INNER
G1 F2100 E12.96657
G1 F1800 X89.573 Y101.945 E13.05238
G1 X87.075 Y101.277 E13.13838
G1 X84.737 Y100.188 E13.22416
G1 X82.615 Y98.707 E13.31023
G1 X80.789 Y96.883 E13.39607
G1 X79.309 Y94.767 E13.48196
G1 X78.213 Y92.422 E13.56805
G1 X77.543 Y89.909 E13.65455
G1 X77.32 Y87.356 E13.73979
G1 X77.542 Y84.78 E13.82579
G1 X78.209 Y82.283 E13.91175
G1 X79.301 Y79.942 E13.99766
G1 X80.794 Y77.809 E14.08426
G1 X82.626 Y75.978 E14.17041
G1 X84.719 Y74.513 E14.25538
G1 X87.066 Y73.418 E14.34152
G1 X89.579 Y72.747 E14.42803
G1 X92.132 Y72.524 E14.51327
G1 X94.708 Y72.746 E14.59926
G1 X97.202 Y73.412 E14.68512
G1 X99.543 Y74.5 E14.77098
G1 X101.663 Y75.981 E14.85699
G1 X103.492 Y77.81 E14.94302
G1 X104.975 Y79.924 E15.02891
G1 X106.079 Y82.289 E15.11572
G1 X106.745 Y84.781 E15.20151
G1 X106.967 Y87.334 E15.28675
G1 X106.742 Y89.91 E15.37275
G1 X106.08 Y92.402 E15.45851
G1 X104.976 Y94.768 E15.54535
G1 X103.494 Y96.883 E15.63125
G1 X101.672 Y98.704 E15.71692
G1 X99.548 Y100.189 E15.80312
G1 X97.211 Y101.277 E15.88886
G1 X94.713 Y101.948 E15.97489
G1 X92.143 Y102.17 E16.06069
G0 F3600 X92.117 Y102.471
G0 X77.98 Y115.475
G0 X78.299 Y115.984
G1 F1800 X78.407 Y115.855 E16.06628
G1 X78.62 Y115.733 E16.07445
G1 X78.761 Y115.704 E16.07924
G1 X105.525 Y115.704 E16.96941
G1 X105.715 Y115.751 E16.97592
G1 X105.935 Y115.913 E16.98501
G1 X106.079 Y116.236 E16.99677
G1 X106.079 Y143.643 E17.90833
G1 X113.133 Y143.643 E18.14295
G1 X113.133 Y116.24 E19.05437
G1 X113.189 Y116.048 E19.06103
G1 X116.943 Y110.034 E19.29682
G1 X116.943 Y66.357 E20.74953
G1 X67.344 Y66.358 E22.3992
G1 X67.344 Y110.034 E23.85186
G1 X71.097 Y116.048 E24.08764
G1 X71.154 Y116.236 E24.09418
G1 X71.154 Y143.643 E25.00574
G1 X78.208 Y143.643 E25.24036
G1 X78.208 Y116.24 E26.15178
G1 X78.299 Y115.984 E26.16082
G0 F3600 X77.908 Y115.984
G0 X92.064 Y102.466
G0 X92.125 Y101.77
;TYPE:WALL-OUTER
G1 F1800 X89.626 Y101.548 E26.24426
G1 X87.196 Y100.895 E26.32795
G1 X84.937 Y99.842 E26.41085
G1 X82.875 Y98.401 E26.49452
G1 X81.109 Y96.637 E26.57754
G1 X79.655 Y94.567 E26.66168
G1 X78.586 Y92.269 E26.74597
G1 X77.937 Y89.84 E26.8296
G1 X77.72 Y87.338 E26.91312
G1 X77.942 Y84.832 E26.9968
G1 X78.592 Y82.409 E27.08024
G1 X79.647 Y80.142 E27.16341
G1 X81.101 Y78.066 E27.2477
G1 X82.869 Y76.3 E27.33082
G1 X84.938 Y74.852 E27.41481
G1 X87.219 Y73.791 E27.49848
G1 X89.648 Y73.141 E27.58212
G1 X92.15 Y72.924 E27.66565
G1 X94.656 Y73.146 E27.74932
G1 X97.046 Y73.784 E27.8316
G1 X99.33 Y74.842 E27.91532
G1 X101.418 Y76.301 E28.00004
G1 X103.186 Y78.067 E28.08315
G1 X104.629 Y80.124 E28.16673
G1 X105.707 Y82.443 E28.25178
G1 X106.351 Y84.867 E28.3352
G1 X106.567 Y87.334 E28.41757
G1 X106.348 Y89.841 E28.50127
G1 X105.695 Y92.281 E28.58528
G1 X104.63 Y94.568 E28.66919
G1 X103.188 Y96.625 E28.75274
G1 X101.41 Y98.402 E28.83635
G1 X99.348 Y99.843 E28.92002
G1 X97.057 Y100.907 E29.00403
G1 X94.625 Y101.555 E29.08775
G1 X92.125 Y101.77 E29.1712
G0 F3600 X91.926 Y101.753
G0 X91.865 Y102.449
G0 X106.306 Y115.475
G0 X106.378 Y116.272
G0 X105.676 Y116.272
G1 F1800 X105.679 Y144.043 E30.09487
G1 X113.533 Y144.043 E30.3561
G1 X113.535 Y116.244 E31.28069
G1 X117.343 Y110.149 E31.51973
G1 X117.343 Y65.957 E32.98956
G1 X66.944 Y65.958 E34.66584
G1 X66.944 Y110.149 E36.13564
G1 X70.751 Y116.244 E36.37465
G1 X70.754 Y144.043 E37.29925
G1 X78.608 Y144.043 E37.56047
G1 X78.61 Y116.235 E38.48537
G1 X78.733 Y116.103 E38.49137
G1 X105.494 Y116.103 E39.38145
G1 X105.612 Y116.153 E39.38571
G1 X105.676 Y116.272 E39.3902
G0 F3600 X105.676 Y116.472
G0 X106.378 Y116.472
G0 X106.306 Y115.475
G0 X92.131 Y102.553
;TYPE:SKIN
G1 F1800 X94.777 Y102.323 E39.47854
G1 X97.325 Y101.643 E39.56626
G1 X99.741 Y100.518 E39.6549
G1 X101.919 Y98.994 E39.74331
G1 X103.776 Y97.139 E39.83061
G1 X105.315 Y94.948 E39.91966
G1 X106.446 Y92.509 E40.00908
G1 X107.115 Y89.98 E40.09609
G1 X107.347 Y87.332 E40.1845
G1 X107.12 Y84.727 E40.27147
G1 X106.441 Y82.17 E40.35947
G1 X105.314 Y79.744 E40.44844
G1 X103.777 Y77.552 E40.53748
G1 X101.921 Y75.7 E40.62469
G1 X99.722 Y74.163 E40.71392
G1 X97.308 Y73.045 E40.8024
G1 X94.796 Y72.376 E40.88886
G1 X92.155 Y72.141 E40.97705
G1 X89.509 Y72.374 E41.0654
G1 X86.95 Y73.055 E41.15347
G1 X84.547 Y74.172 E41.24161
G1 X82.365 Y75.699 E41.33019
G1 X80.512 Y77.554 E41.4174
G1 X78.964 Y79.765 E41.50717
G1 X77.854 Y82.147 E41.59457
G1 X77.166 Y84.727 E41.68338
G1 X76.941 Y87.34 E41.77061
G1 X77.17 Y89.979 E41.85872
G1 X77.85 Y92.538 E41.94678
G1 X78.968 Y94.945 E42.03505
G1 X80.506 Y97.139 E42.12417
G1 X82.39 Y99.017 E42.21265
G1 X84.527 Y100.506 E42.29928
G1 X86.932 Y101.629 E42.38756
G1 X89.491 Y102.318 E42.4757
G1 X92.131 Y102.553 E42.56386
G0 F3600 X106.306 Y115.475
G0 X106.314 Y115.786
G1 F1800 X106.048 Y115.504 E42.57675
G1 X105.846 Y115.393 E42.58442
G1 X105.557 Y115.325 E42.59429
G1 X78.729 Y115.325 E43.48659
G1 X78.44 Y115.393 E43.49647
G1 X78.237 Y115.505 E43.50418
G1 X77.975 Y115.786 E43.51696
G1 X77.83 Y116.19 E43.53123
G1 X77.828 Y143.263 E44.43168
G1 X71.534 Y143.263 E44.64102
G1 X71.532 Y116.182 E45.54174
G1 X71.44 Y115.883 E45.55215
G1 X67.725 Y109.925 E45.78568
G1 X67.725 Y66.739 E47.22205
G1 X116.563 Y66.737 E48.84641
G1 X116.563 Y109.925 E50.28285
G1 X112.84 Y115.895 E50.51686
G1 X112.754 Y116.185 E50.52692
G1 X112.753 Y143.263 E51.42753
G1 X106.459 Y143.263 E51.63687
G1 X106.459 Y116.286 E52.53413
G1 X106.413 Y116.003 E52.54367
G1 X106.314 Y115.786 E52.5516
G0 F3600 X106.378 Y115.786
G0 X77.98 Y115.475
G0 X72.351 Y143.062
G1 F1800 X71.733 Y142.443 E52.58069
G0 F3600 X71.733 Y141.878
G1 F1800 X72.917 Y143.062 E52.63639
G0 F3600 X73.483 Y143.062
G1 F1800 X71.733 Y141.312 E52.7187
G0 F3600 X71.733 Y140.746
G1 F1800 X74.048 Y143.062 E52.82761
G0 F3600 X74.614 Y143.062
G1 F1800 X71.733 Y140.181 E52.96313
G0 F3600 X71.733 Y139.615
G1 F1800 X75.18 Y143.062 E53.12526
G0 F3600 X75.745 Y143.062
G1 F1800 X71.733 Y139.049 E53.314
G0 F3600 X71.732 Y138.483
G1 F1800 X76.311 Y143.062 E53.52938
G0 F3600 X76.877 Y143.062
G1 F1800 X71.732 Y137.917 E53.77139
G0 F3600 X71.732 Y137.351
G1 F1800 X77.443 Y143.062 E54.04001
G0 F3600 X77.629 Y142.682
G1 F1800 X71.732 Y136.786 E54.31737
G0 F3600 X71.732 Y136.22
G1 F1800 X77.629 Y142.117 E54.59475
G0 F3600 X77.629 Y141.551
G1 F1800 X71.732 Y135.654 E54.87212
G0 F3600 X71.732 Y135.089
G1 F1800 X77.629 Y140.985 E55.14948
G0 F3600 X77.629 Y140.42
G1 F1800 X71.732 Y134.523 E55.42685
G0 F3600 X71.731 Y133.957
G1 F1800 X77.629 Y139.854 E55.70425
G0 F3600 X77.629 Y139.288
G1 F1800 X71.731 Y133.391 E55.98165
G0 F3600 X71.731 Y132.825
G1 F1800 X77.629 Y138.723 E56.25908
G0 F3600 X77.629 Y138.157
G1 F1800 X71.731 Y132.26 E56.53648
G0 F3600 X71.731 Y131.694
G1 F1800 X77.629 Y137.592 E56.8139
G0 F3600 X77.629 Y137.026
G1 F1800 X71.731 Y131.128 E57.09132
G0 F3600 X71.731 Y130.563
G1 F1800 X77.629 Y136.461 E57.36875
G0 F3600 X77.629 Y135.895
G1 F1800 X71.731 Y129.997 E57.64617
G0 F3600 X71.731 Y129.43
G1 F1800 X77.629 Y135.329 E57.92362
G0 F3600 X77.629 Y134.763
G1 F1800 X71.731 Y128.865 E58.20104
G0 F3600 X71.731 Y128.299
G1 F1800 X77.629 Y134.198 E58.47849
G0 F3600 X77.629 Y133.632
G1 F1800 X71.731 Y127.733 E58.75594
G0 F3600 X71.731 Y127.168
G1 F1800 X77.629 Y133.066 E59.03336
G0 F3600 X77.629 Y132.501
G1 F1800 X71.731 Y126.602 E59.31081
G0 F3600 X71.731 Y126.036
G1 F1800 X77.63 Y131.936 E59.5883
G0 F3600 X77.63 Y131.37
G1 F1800 X71.731 Y125.471 E59.86577
G0 F3600 X71.73 Y124.904
G1 F1800 X77.63 Y130.804 E60.14329
G0 F3600 X77.63 Y130.239
G1 F1800 X71.73 Y124.339 E60.42081
G0 F3600 X71.73 Y123.773
G1 F1800 X77.63 Y129.673 E60.69833
G0 F3600 X77.63 Y129.107
G1 F1800 X71.73 Y123.207 E60.97585
G0 F3600 X71.73 Y122.642
G1 F1800 X77.63 Y128.542 E61.25336
G0 F3600 X77.63 Y127.976
G1 F1800 X71.73 Y122.076 E61.53088
G0 F3600 X71.73 Y121.51
G1 F1800 X77.63 Y127.41 E61.8084
G0 F3600 X77.631 Y126.845
G1 F1800 X71.73 Y120.944 E62.08596
G0 F3600 X71.729 Y120.378
G1 F1800 X77.631 Y126.28 E62.36358
G0 F3600 X77.631 Y125.714
G1 F1800 X71.729 Y119.812 E62.64119
G0 F3600 X71.729 Y119.247
G1 F1800 X77.631 Y125.148 E62.91878
G0 F3600 X77.631 Y124.583
G1 F1800 X71.729 Y118.681 E63.19639
G0 F3600 X71.729 Y118.115
G1 F1800 X77.631 Y124.017 E63.474
G0 F3600 X77.631 Y123.451
G1 F1800 X71.729 Y117.55 E63.75159
G0 F3600 X71.729 Y116.984
G1 F1800 X77.631 Y122.885 E64.02918
G0 F3600 X77.631 Y122.32
G1 F1800 X71.729 Y116.418 E64.30679
G1 X71.659 Y116.348
G0 F3600 X71.519 Y115.643
G1 F1800 X77.631 Y121.754 E64.59426
G0 F3600 X77.631 Y121.189
G1 F1800 X70.586 Y114.144 E64.92563
G1 X70.516 Y114.074
G0 F3600 X69.654 Y112.646
G1 F1800 X77.631 Y120.623 E65.30085
G0 F3600 X77.631 Y120.058
G1 F1800 X68.721 Y111.147 E65.71997
G1 X68.651 Y111.077
G0 F3600 X67.924 Y109.785
G1 F1800 X77.631 Y119.492 E66.17656
G0 F3600 X77.631 Y118.926
G1 F1800 X67.924 Y109.219 E66.63314
G0 F3600 X67.924 Y108.654
G1 F1800 X77.631 Y118.361 E67.08973
G0 F3600 X77.631 Y117.795
G1 F1800 X67.924 Y108.088 E67.54632
G0 F3600 X67.924 Y107.522
G1 F1800 X77.631 Y117.229 E68.00291
G0 F3600 X77.631 Y116.664
G1 F1800 X67.924 Y106.956 E68.45952
G0 F3600 X67.924 Y106.391
G1 F1800 X77.647 Y116.114 E68.91686
G0 F3600 X77.8 Y115.701
G1 F1800 X67.924 Y105.825 E69.38139
G0 F3600 X67.924 Y105.259
G1 F1800 X78.073 Y115.409 E69.85879
G0 F3600 X78.422 Y115.191
G1 F1800 X67.924 Y104.694 E70.35256
G0 F3600 X67.924 Y104.128
G1 F1800 X78.921 Y115.125 E70.86983
G0 F3600 X79.487 Y115.125
G1 F1800 X67.924 Y103.562 E71.41372
G0 F3600 X67.924 Y102.997
G1 F1800 X80.052 Y115.125 E71.98418
G0 F3600 X80.618 Y115.125
G1 F1800 X67.924 Y102.431 E72.58127
G0 F3600 X67.924 Y101.865
G1 F1800 X81.184 Y115.125 E73.20498
G0 F3600 X81.75 Y115.125
G1 F1800 X67.924 Y101.3 E73.85529
G0 F3600 X67.924 Y100.734
G1 F1800 X82.315 Y115.125 E74.5322
G0 F3600 X82.881 Y115.125
G1 F1800 X67.924 Y100.168 E75.23573
G0 F3600 X67.924 Y99.603
G1 F1800 X83.447 Y115.125 E75.96586
G0 F3600 X84.012 Y115.125
G1 F1800 X67.924 Y99.037 E76.72259
G0 F3600 X67.924 Y98.471
G1 F1800 X84.578 Y115.125 E77.50594
G0 F3600 X85.144 Y115.125
G1 F1800 X67.924 Y97.906 E78.31589
G0 F3600 X67.924 Y97.34
G1 F1800 X85.709 Y115.125 E79.15245
G0 F3600 X86.275 Y115.125
G1 F1800 X67.924 Y96.774 E80.01562
G0 F3600 X67.924 Y96.208
G1 F1800 X86.841 Y115.125 E80.90542
G0 F3600 X87.406 Y115.125
G1 F1800 X67.924 Y95.643 E81.82179
G0 F3600 X67.924 Y95.077
G1 F1800 X87.972 Y115.125 E82.76479
G0 F3600 X88.538 Y115.125
G1 F1800 X67.924 Y94.511 E83.73441
G0 F3600 X67.924 Y93.946
G1 F1800 X89.103 Y115.125 E84.7306
G0 F3600 X89.669 Y115.125
G1 F1800 X67.924 Y93.38 E85.75342
G0 F3600 X67.924 Y92.814
G1 F1800 X90.235 Y115.125 E86.80286
G0 F3600 X90.8 Y115.125
G1 F1800 X67.924 Y92.249 E87.87888
G0 F3600 X67.924 Y91.683
G1 F1800 X91.366 Y115.125 E88.98152
G0 F3600 X91.932 Y115.125
G1 F1800 X67.924 Y91.117 E90.11078
G0 F3600 X67.924 Y90.552
G1 F1800 X92.498 Y115.125 E91.26664
G0 F3600 X93.063 Y115.125
G1 F1800 X67.924 Y89.986 E92.44911
G0 F3600 X67.924 Y89.42
G1 F1800 X93.629 Y115.125 E93.65819
G0 F3600 X94.195 Y115.125
G1 F1800 X67.924 Y88.855 E94.89387
G0 F3600 X67.924 Y88.289
G1 F1800 X94.76 Y115.125 E96.15616
G0 F3600 X95.326 Y115.125
G1 F1800 X67.924 Y87.723 E97.44506
G0 F3600 X67.924 Y87.157
G1 F1800 X95.892 Y115.125 E98.76059
G0 F3600 X96.457 Y115.125
G1 F1800 X67.924 Y86.592 E100.1027
G0 F3600 X67.924 Y86.026
G1 F1800 X97.023 Y115.125 E101.47142
G0 F3600 X97.589 Y115.125
G1 F1800 X67.924 Y85.46 E102.86677
G0 F3600 X67.924 Y84.895
G1 F1800 X98.154 Y115.125 E104.2887
G0 F3600 X98.72 Y115.125
G1 F1800 X83.911 Y100.316 E104.98527
G1 X83.841 Y100.246
G0 F3600 X85.202 Y101.042
G1 F1800 X99.286 Y115.125 E105.64772
