;FLAVOR:RepRap
;TIME:1454
;Filament used: 1.45951m
;Layer height: 0.2
;MINX:133.93
;MINY:133.933
;MINZ:0.2
;MAXX:166.071
;MAXY:166.072
;MAXZ:17.8
;TARGET_MACHINE.NAME:VORON2 300
;Generated with Cura_SteamEngine 5.6.0
T0
M82 ;absolute extrusion mode
M104 S150 ; set extruder preheat temp
M140 S65 ; set bed temp
M190 S65 ; wait for bed temp
M104 S200 ; set extruder temp
M109 S200 ; wait for extruder temp
M83 ;relative extrusion mode
G1 F1800 E-0.75
;LAYER_COUNT:89
;LAYER:0
M107
G1 F600 Z0.4
G0 F7200 X139.031 Y138.252 Z0.4
;TYPE:SKIRT
G1 F600 Z0.2
G1 F720 E0.75
G1 F1200 X139.329 Y137.982 E0.0173
G1 X139.818 Y137.573 E0.02743
G1 X140.449 Y137.074 E0.03462
G1 X140.77 Y136.843 E0.01702
G1 X141.408 Y136.423 E0.03287
G1 X141.95 Y136.089 E0.0274
G1 X142.304 Y135.892 E0.01743
G1 X143.021 Y135.529 E0.03458
G1 X143.602 Y135.256 E0.02762
G1 X143.918 Y135.124 E0.01474
G1 X144.631 Y134.86 E0.03272
G1 X145.381 Y134.608 E0.03405
G1 X145.746 Y134.503 E0.01634
G1 X146.451 Y134.331 E0.03123
G1 X147.122 Y134.188 E0.02952
G1 X147.448 Y134.132 E0.01423
G1 X148.183 Y134.037 E0.03189
G1 X148.954 Y133.964 E0.03332
G1 X149.343 Y133.942 E0.01677
G1 X150.092 Y133.933 E0.03223
G1 X150.812 Y133.949 E0.03099
G1 X151.19 Y133.97 E0.01629
G1 X151.835 Y134.038 E0.02791
G1 X152.57 Y134.135 E0.0319
G1 X152.938 Y134.198 E0.01607
G1 X153.712 Y134.369 E0.03411
G1 X154.296 Y134.516 E0.02591
G1 X154.638 Y134.619 E0.01537
G1 X155.653 Y134.962 E0.0461
G1 X156.128 Y135.141 E0.02184
G1 X156.496 Y135.299 E0.01723
G1 X157.173 Y135.624 E0.03231
G1 X157.766 Y135.928 E0.02867
G1 X158.082 Y136.107 E0.01563
G1 X158.797 Y136.556 E0.03633
G1 X159.352 Y136.927 E0.02873
G1 X159.658 Y137.153 E0.01637
G1 X160.136 Y137.533 E0.02628
G1 X160.761 Y138.061 E0.03521
G1 X161.064 Y138.344 E0.01784
G1 X161.537 Y138.82 E0.02888
G1 X162.054 Y139.373 E0.03258
G1 X162.31 Y139.669 E0.01684
G1 X162.784 Y140.268 E0.03287
G1 X163.166 Y140.781 E0.02752
G1 X163.381 Y141.101 E0.01659
G1 X163.831 Y141.826 E0.03672
G1 X164.144 Y142.369 E0.02697
G1 X164.331 Y142.726 E0.01734
G1 X164.644 Y143.39 E0.03159
G1 X164.92 Y144.019 E0.02956
G1 X165.044 Y144.341 E0.01485
G1 X165.32 Y145.165 E0.03739
G1 X165.515 Y145.804 E0.02875
G1 X165.605 Y146.16 E0.0158
G1 X165.754 Y146.86 E0.0308
G1 X165.883 Y147.553 E0.03033
G1 X165.942 Y147.96 E0.0177
G1 X166.016 Y148.72 E0.03286
G1 X166.063 Y149.408 E0.02967
G1 X166.071 Y149.782 E0.0161
G1 X166.062 Y150.511 E0.03137
G1 X166.039 Y151.041 E0.02283
G1 X165.996 Y151.517 E0.02057
G1 X165.876 Y152.478 E0.04167
G1 X165.807 Y152.914 E0.01899
G1 X165.749 Y153.204 E0.01273
G1 X165.493 Y154.25 E0.04634
G1 X165.338 Y154.807 E0.02488
G1 X165.229 Y155.141 E0.01512
G1 X164.969 Y155.835 E0.03189
G1 X164.704 Y156.499 E0.03076
G1 X164.541 Y156.859 E0.017
G1 X164.318 Y157.294 E0.02103
G1 X163.84 Y158.17 E0.04294
G1 X163.631 Y158.513 E0.01728
G1 X163.199 Y159.161 E0.03351
G1 X162.821 Y159.693 E0.02808
G1 X162.567 Y160.018 E0.01775
G1 X162.164 Y160.493 E0.0268
G1 X161.623 Y161.1 E0.03499
G1 X161.356 Y161.37 E0.01634
G1 X160.788 Y161.906 E0.03361
G1 X160.301 Y162.343 E0.02816
G1 X159.986 Y162.599 E0.01747
G1 X159.549 Y162.924 E0.02343
G1 X158.785 Y163.46 E0.04016
G1 X158.466 Y163.66 E0.0162
G1 X157.839 Y164.025 E0.03122
G1 X157.274 Y164.333 E0.02769
G1 X156.914 Y164.508 E0.01722
G1 X156.252 Y164.797 E0.03108
G1 X155.551 Y165.086 E0.03263
G1 X155.286 Y165.181 E0.01211
G1 X154.441 Y165.44 E0.03803
G1 X153.789 Y165.618 E0.02908
G1 X153.45 Y165.696 E0.01497
G1 X152.569 Y165.861 E0.03857
G1 X151.97 Y165.951 E0.02606
G1 X151.597 Y165.993 E0.01615
G1 X150.884 Y166.044 E0.03076
G1 X150.141 Y166.072 E0.03199
G1 X149.692 Y166.07 E0.01932
G1 X149.053 Y166.04 E0.02753
G1 X148.32 Y165.985 E0.03163
G1 X147.92 Y165.934 E0.01735
G1 X147.152 Y165.812 E0.03346
G1 X146.495 Y165.685 E0.02879
G1 X146.112 Y165.592 E0.01696
G1 X145.478 Y165.415 E0.02832
G1 X144.719 Y165.183 E0.03415
G1 X144.445 Y165.085 E0.01252
G1 X143.495 Y164.694 E0.04421
G1 X143.008 Y164.475 E0.02298
G1 X142.643 Y164.293 E0.01755
G1 X141.93 Y163.898 E0.03507
G1 X141.245 Y163.482 E0.03449
G1 X140.734 Y163.126 E0.0268
G1 X139.93 Y162.525 E0.04319
G1 X139.636 Y162.285 E0.01633
G1 X139.104 Y161.811 E0.03066
G1 X138.642 Y161.375 E0.02733
G1 X138.302 Y161.02 E0.02115
G1 X137.813 Y160.472 E0.0316
G1 X137.359 Y159.935 E0.03026
G1 X137.05 Y159.521 E0.02223
G1 X136.348 Y158.478 E0.0541
G1 X136.133 Y158.124 E0.01782
G1 X135.768 Y157.454 E0.03283
G1 X135.465 Y156.859 E0.02873
G1 X135.289 Y156.467 E0.01849
G1 X135.013 Y155.782 E0.03178
G1 X134.759 Y155.103 E0.03119
G1 X134.635 Y154.718 E0.0174
G1 X134.455 Y154.061 E0.02931
G1 X134.278 Y153.336 E0.03211
G1 X134.199 Y152.945 E0.01716
G1 X134.059 Y152.038 E0.03949
G1 X134.004 Y151.593 E0.01929
G1 X133.966 Y151.137 E0.01969
G1 X133.939 Y150.461 E0.02911
G1 X133.93 Y149.657 E0.0346
G1 X133.944 Y149.27 E0.01666
G1 X133.993 Y148.604 E0.02874
G1 X134.064 Y147.916 E0.02976
G1 X134.13 Y147.472 E0.01932
G1 X134.279 Y146.687 E0.03438
G1 X134.426 Y146.021 E0.02935
G1 X134.51 Y145.708 E0.01395
G1 X134.72 Y145.042 E0.03005
G1 X134.97 Y144.301 E0.03365
G1 X135.095 Y143.983 E0.0147
G1 X135.431 Y143.226 E0.03564
G1 X135.676 Y142.71 E0.02458
G1 X135.868 Y142.353 E0.01744
G1 X136.327 Y141.558 E0.0395
G1 X136.612 Y141.104 E0.02307
G1 X136.876 Y140.727 E0.0198
G1 X137.33 Y140.125 E0.03244
G1 X137.785 Y139.551 E0.03152
G1 X138.184 Y139.104 E0.02578
G1 X139.031 Y138.252 E0.0517
G0 F7200 X139.334 Y138.585
G1 F1200 X139.618 Y138.327 E0.01651
G1 X140.097 Y137.926 E0.02688
G1 X140.712 Y137.439 E0.03376
G1 X141.018 Y137.219 E0.01622
G1 X141.645 Y136.806 E0.03231
G1 X142.169 Y136.482 E0.02651
G1 X142.508 Y136.293 E0.0167
G1 X143.212 Y135.936 E0.03397
G1 X143.776 Y135.671 E0.02681
G1 X144.074 Y135.546 E0.01391
G1 X144.775 Y135.286 E0.03217
G1 X145.506 Y135.04 E0.03319
G1 X145.853 Y134.94 E0.01554
G1 X146.545 Y134.771 E0.03065
G1 X147.198 Y134.632 E0.02873
G1 X147.524 Y134.576 E0.01423
G1 X148.226 Y134.485 E0.03046
G1 X148.98 Y134.413 E0.03259
G1 X149.349 Y134.392 E0.0159
G1 X150.082 Y134.383 E0.03154
G1 X150.787 Y134.398 E0.03034
G1 X151.143 Y134.418 E0.01534
G1 X151.776 Y134.484 E0.02739
G1 X152.494 Y134.579 E0.03117
G1 X152.862 Y134.642 E0.01607
G1 X153.602 Y134.805 E0.03261
G1 X154.167 Y134.947 E0.02507
G1 X154.494 Y135.045 E0.01469
G1 X155.494 Y135.383 E0.04542
G1 X155.951 Y135.555 E0.02101
G1 X156.301 Y135.705 E0.01639
G1 X156.968 Y136.025 E0.03183
G1 X157.544 Y136.32 E0.02785
G1 X157.86 Y136.499 E0.01563
G1 X158.547 Y136.93 E0.0349
G1 X159.085 Y137.289 E0.02783
G1 X159.378 Y137.505 E0.01566
G1 X159.846 Y137.877 E0.02573
G1 X160.454 Y138.39 E0.03423
G1 X160.745 Y138.662 E0.01714
G1 X161.209 Y139.128 E0.0283
G1 X161.714 Y139.667 E0.03178
G1 X161.957 Y139.948 E0.01599
G1 X162.423 Y140.537 E0.03232
G1 X162.792 Y141.032 E0.02657
G1 X163.007 Y141.352 E0.01659
G1 X163.441 Y142.051 E0.0354
G1 X163.754 Y142.594 E0.02697
G1 X163.924 Y142.918 E0.01574
G1 X164.232 Y143.571 E0.03107
G1 X164.5 Y144.182 E0.02871
G1 X164.617 Y144.484 E0.01394
G1 X164.89 Y145.296 E0.03686
G1 X165.079 Y145.915 E0.02785
G1 X165.165 Y146.254 E0.01505
G1 X165.312 Y146.942 E0.03027
G1 X165.438 Y147.618 E0.02959
G1 X165.494 Y148.004 E0.01678
G1 X165.567 Y148.751 E0.0323
G1 X165.613 Y149.418 E0.02877
G1 X165.621 Y149.776 E0.01541
G1 X165.612 Y150.491 E0.03077
G1 X165.589 Y151.021 E0.02283
G1 X165.549 Y151.461 E0.01901
G1 X165.429 Y152.422 E0.04167
G1 X165.365 Y152.827 E0.01764
G1 X165.312 Y153.097 E0.01184
G1 X165.06 Y154.129 E0.04571
G1 X164.91 Y154.667 E0.02403
G1 X164.801 Y155.001 E0.01512
G1 X164.551 Y155.668 E0.03065
G1 X164.294 Y156.313 E0.02988
G1 X164.131 Y156.673 E0.017
G1 X163.923 Y157.079 E0.01963
G1 X163.456 Y157.936 E0.042
G1 X163.257 Y158.263 E0.01647
G1 X162.832 Y158.9 E0.03295
G1 X162.454 Y159.432 E0.02808
G1 X162.223 Y159.727 E0.01612
G1 X161.828 Y160.194 E0.02632
G1 X161.303 Y160.784 E0.03398
G1 X161.047 Y161.043 E0.01567
G1 X160.488 Y161.571 E0.03309
G1 X160.016 Y161.994 E0.02727
G1 X159.717 Y162.238 E0.01661
G1 X159.291 Y162.556 E0.02287
G1 X158.545 Y163.079 E0.0392
G1 X158.24 Y163.271 E0.01551
G1 X157.623 Y163.63 E0.03072
G1 X157.077 Y163.928 E0.02677
G1 X156.717 Y164.103 E0.01722
G1 X156.081 Y164.381 E0.02987
G1 X155.399 Y164.662 E0.03174
G1 X155.134 Y164.757 E0.01211
G1 X154.323 Y165.006 E0.03651
G1 X153.688 Y165.179 E0.02832
G1 X153.349 Y165.257 E0.01497
G1 X152.502 Y165.416 E0.03708
G1 X151.919 Y165.504 E0.02537
G1 X151.565 Y165.544 E0.01533
G1 X150.867 Y165.594 E0.03011
G1 X150.143 Y165.622 E0.03118
G1 X149.713 Y165.62 E0.0185
G1 X149.087 Y165.591 E0.02697
G1 X148.354 Y165.536 E0.03163
G1 X147.991 Y165.49 E0.01574
G1 X147.237 Y165.37 E0.03285
G1 X146.601 Y165.248 E0.02787
G1 X146.233 Y165.159 E0.01629
G1 X145.61 Y164.985 E0.02783
G1 X144.871 Y164.759 E0.03325
G1 X144.597 Y164.661 E0.01252
G1 X143.68 Y164.284 E0.04266
G1 X143.193 Y164.065 E0.02298
G1 X142.861 Y163.899 E0.01597
G1 X142.164 Y163.513 E0.03428
G1 X141.479 Y163.097 E0.03449
G1 X140.992 Y162.757 E0.02556
G1 X140.215 Y162.176 E0.04175
G1 X139.921 Y161.936 E0.01633
G1 X139.413 Y161.483 E0.02929
G1 X138.967 Y161.063 E0.02636
G1 X138.638 Y160.72 E0.02045
G1 X138.157 Y160.181 E0.03109
G1 X137.703 Y159.644 E0.03026
G1 X137.411 Y159.252 E0.02103
G1 X136.733 Y158.244 E0.05227
G1 X136.518 Y157.89 E0.01782
G1 X136.169 Y157.25 E0.03137
G1 X135.876 Y156.675 E0.02777
G1 X135.7 Y156.283 E0.01849
G1 X135.434 Y155.624 E0.03058
G1 X135.187 Y154.965 E0.03028
G1 X135.069 Y154.599 E0.01655
G1 X134.892 Y153.954 E0.02878
G1 X134.719 Y153.247 E0.03132
G1 X134.644 Y152.876 E0.01629
G1 X134.506 Y151.983 E0.03888
G1 X134.451 Y151.538 E0.01929
G1 X134.416 Y151.119 E0.01809
G1 X134.389 Y150.456 E0.02855
G1 X134.38 Y149.673 E0.03369
G1 X134.393 Y149.303 E0.01593
G1 X134.441 Y148.65 E0.02817
G1 X134.509 Y147.982 E0.02889
G1 X134.572 Y147.556 E0.01853
G1 X134.719 Y146.784 E0.03382
G1 X134.861 Y146.138 E0.02846
G1 X134.945 Y145.825 E0.01395
G1 X135.146 Y145.186 E0.02882
G1 X135.389 Y144.466 E0.0327
G1 X135.514 Y144.148 E0.0147
G1 X135.838 Y143.419 E0.03433
G1 X136.083 Y142.903 E0.02458
G1 X136.258 Y142.578 E0.01588
G1 X136.709 Y141.797 E0.03881
G1 X136.981 Y141.362 E0.02208
G1 X137.235 Y140.998 E0.0191
G1 X137.683 Y140.404 E0.03201
G1 X138.121 Y139.851 E0.03036
G1 X138.52 Y139.404 E0.02578
G1 X139.334 Y138.585 E0.04969
G0 F7200 X139.637 Y138.918
G1 F1200 X139.907 Y138.672 E0.01572
G1 X140.377 Y138.279 E0.02636
G1 X140.976 Y137.804 E0.0329
G1 X141.265 Y137.595 E0.01535
G1 X141.882 Y137.189 E0.03178
G1 X142.389 Y136.875 E0.02566
G1 X142.712 Y136.694 E0.01593
G1 X143.404 Y136.343 E0.03339
G1 X143.95 Y136.086 E0.02597
G1 X144.231 Y135.968 E0.01311
G1 X144.919 Y135.712 E0.03159
G1 X145.631 Y135.472 E0.03233
G1 X145.96 Y135.377 E0.01474
G1 X146.639 Y135.211 E0.03008
G1 X147.274 Y135.076 E0.02793
G1 X147.6 Y135.02 E0.01423
G1 X148.269 Y134.933 E0.02903
G1 X149.006 Y134.862 E0.03186
G1 X149.355 Y134.842 E0.01504
G1 X150.073 Y134.833 E0.0309
G1 X150.762 Y134.847 E0.02965
G1 X151.097 Y134.866 E0.01444
G1 X151.717 Y134.93 E0.02682
G1 X152.418 Y135.022 E0.03042
G1 X152.766 Y135.082 E0.0152
G1 X153.492 Y135.241 E0.03198
G1 X154.038 Y135.378 E0.02422
G1 X154.35 Y135.471 E0.01401
G1 X155.336 Y135.804 E0.04478
G1 X155.773 Y135.968 E0.02008
G1 X156.106 Y136.111 E0.01559
G1 X156.763 Y136.426 E0.03135
G1 X157.322 Y136.712 E0.02702
G1 X157.638 Y136.891 E0.01563
G1 X158.297 Y137.304 E0.03347
G1 X158.819 Y137.652 E0.027
G1 X159.098 Y137.857 E0.0149
G1 X159.556 Y138.221 E0.02517
G1 X160.147 Y138.719 E0.03326
G1 X160.426 Y138.979 E0.01641
G1 X160.881 Y139.436 E0.02775
G1 X161.374 Y139.961 E0.03099
G1 X161.604 Y140.227 E0.01513
G1 X162.062 Y140.806 E0.03177
G1 X162.431 Y141.301 E0.02657
G1 X162.625 Y141.589 E0.01494
G1 X163.051 Y142.276 E0.03478
G1 X163.356 Y142.804 E0.02624
G1 X163.517 Y143.11 E0.01488
G1 X163.82 Y143.752 E0.03055
G1 X164.08 Y144.345 E0.02786
G1 X164.197 Y144.647 E0.01394
G1 X164.46 Y145.427 E0.03542
G1 X164.643 Y146.026 E0.02695
G1 X164.725 Y146.348 E0.0143
G1 X164.87 Y147.025 E0.02979
G1 X164.993 Y147.682 E0.02876
G1 X165.046 Y148.048 E0.01591
G1 X165.118 Y148.782 E0.03174
G1 X165.163 Y149.429 E0.02791
G1 X165.171 Y149.77 E0.01468
G1 X165.162 Y150.471 E0.03017
G1 X165.139 Y151.001 E0.02283
G1 X165.103 Y151.405 E0.01745
G1 X164.984 Y152.352 E0.04107
G1 X164.923 Y152.74 E0.0169
G1 X164.87 Y153.01 E0.01184
G1 X164.627 Y154.008 E0.0442
G1 X164.482 Y154.527 E0.02319
G1 X164.373 Y154.861 E0.01512
G1 X164.133 Y155.502 E0.02945
G1 X163.884 Y156.128 E0.02899
G1 X163.731 Y156.468 E0.01604
G1 X163.528 Y156.864 E0.01915
G1 X163.071 Y157.703 E0.04111
G1 X162.883 Y158.013 E0.0156
G1 X162.465 Y158.639 E0.03239
G1 X162.087 Y159.171 E0.02808
G1 X161.879 Y159.437 E0.01453
G1 X161.492 Y159.895 E0.0258
G1 X160.982 Y160.468 E0.03301
G1 X160.738 Y160.716 E0.01497
G1 X160.188 Y161.236 E0.03257
G1 X159.731 Y161.645 E0.02639
G1 X159.432 Y161.889 E0.01661
G1 X159.032 Y162.188 E0.02149
G1 X158.306 Y162.698 E0.03818
G1 X158.013 Y162.882 E0.01489
G1 X157.407 Y163.235 E0.03018
G1 X156.88 Y163.523 E0.02584
G1 X156.52 Y163.698 E0.01722
G1 X155.91 Y163.965 E0.02865
G1 X155.247 Y164.238 E0.03085
G1 X154.982 Y164.333 E0.01211
G1 X154.205 Y164.572 E0.03498
G1 X153.587 Y164.74 E0.02756
G1 X153.248 Y164.818 E0.01497
G1 X152.435 Y164.971 E0.0356
G1 X151.868 Y165.057 E0.02468
G1 X151.533 Y165.095 E0.01451
G1 X150.849 Y165.144 E0.02951
G1 X150.144 Y165.172 E0.03036
G1 X149.734 Y165.171 E0.01764
G1 X149.12 Y165.142 E0.02645
G1 X148.409 Y165.089 E0.03068
G1 X148.062 Y165.046 E0.01505
G1 X147.322 Y164.928 E0.03224
G1 X146.686 Y164.806 E0.02787
G1 X146.354 Y164.726 E0.01469
G1 X145.742 Y164.555 E0.02734
G1 X145.023 Y164.335 E0.03235
G1 X144.749 Y164.237 E0.01252
G1 X143.864 Y163.873 E0.04118
G1 X143.394 Y163.662 E0.02217
G1 X143.079 Y163.505 E0.01514
G1 X142.398 Y163.128 E0.03349
G1 X141.713 Y162.712 E0.03449
G1 X141.261 Y162.397 E0.02371
G1 X140.5 Y161.828 E0.04089
G1 X140.221 Y161.6 E0.0155
G1 X139.722 Y161.155 E0.02877
G1 X139.276 Y160.735 E0.02636
G1 X138.974 Y160.421 E0.01875
G1 X138.501 Y159.89 E0.0306
G1 X138.047 Y159.353 E0.03026
G1 X137.784 Y159.001 E0.01891
G1 X137.117 Y158.01 E0.0514
G1 X136.913 Y157.675 E0.01688
G1 X136.57 Y157.046 E0.03083
G1 X136.277 Y156.471 E0.02777
G1 X136.117 Y156.115 E0.01679
G1 X135.855 Y155.466 E0.03012
G1 X135.615 Y154.827 E0.02937
G1 X135.503 Y154.48 E0.01569
G1 X135.329 Y153.847 E0.02825
G1 X135.16 Y153.158 E0.03053
G1 X135.089 Y152.807 E0.01541
G1 X134.953 Y151.928 E0.03827
G1 X134.898 Y151.483 E0.01929
G1 X134.866 Y151.1 E0.01654
G1 X134.839 Y150.451 E0.02795
G1 X134.83 Y149.688 E0.03283
G1 X134.842 Y149.336 E0.01516
G1 X134.889 Y148.696 E0.02761
G1 X134.957 Y148.028 E0.02889
G1 X135.014 Y147.64 E0.01687
G1 X135.158 Y146.881 E0.03324
G1 X135.296 Y146.255 E0.02758
G1 X135.38 Y145.942 E0.01395
G1 X135.572 Y145.33 E0.0276
G1 X135.808 Y144.631 E0.03175
G1 X135.933 Y144.313 E0.0147
G1 X136.244 Y143.612 E0.033
G1 X136.48 Y143.115 E0.02367
G1 X136.647 Y142.803 E0.01523
G1 X137.091 Y142.036 E0.03814
G1 X137.363 Y141.601 E0.02208
G1 X137.594 Y141.269 E0.0174
G1 X138.036 Y140.683 E0.03158
G1 X138.457 Y140.151 E0.02919
G1 X138.856 Y139.704 E0.02578
G1 X139.637 Y138.918 E0.04768
G0 F7200 X139.941 Y139.25
G1 F1200 X140.196 Y139.017 E0.01486
G1 X140.657 Y138.631 E0.02587
G1 X141.24 Y138.168 E0.03204
G1 X141.512 Y137.971 E0.01445
G1 X142.119 Y137.572 E0.03126
G1 X142.626 Y137.258 E0.02566
G1 X142.916 Y137.095 E0.01431
G1 X143.596 Y136.75 E0.03281
G1 X144.125 Y136.501 E0.02516
G1 X144.388 Y136.39 E0.01228
G1 X145.063 Y136.138 E0.031
G1 X145.756 Y135.904 E0.03147
G1 X146.067 Y135.814 E0.01393
G1 X146.732 Y135.651 E0.02946
G1 X147.35 Y135.52 E0.02718
G1 X147.676 Y135.464 E0.01423
G1 X148.313 Y135.381 E0.02764
G1 X149.032 Y135.311 E0.03109
G1 X149.361 Y135.292 E0.01418
G1 X150.064 Y135.283 E0.03025
G1 X150.736 Y135.296 E0.02892
G1 X151.051 Y135.314 E0.01358
G1 X151.658 Y135.376 E0.02626
G1 X152.342 Y135.466 E0.02969
G1 X152.67 Y135.522 E0.01432
G1 X153.382 Y135.677 E0.03136
G1 X153.911 Y135.81 E0.02347
G1 X154.206 Y135.897 E0.01323
G1 X155.178 Y136.225 E0.04414
G1 X155.596 Y136.382 E0.01921
