;FLAVOR:RepRap
;TIME:1660
;Filament used: 1.6674m
;Layer height: 0.2
;MINX:133.933
;MINY:133.93
;MINZ:0.2
;MAXX:166.067
;MAXY:166.07
;MAXZ:20.4
;TARGET_MACHINE.NAME:VORON2 300
;Generated with Cura_SteamEngine 5.6.0
T0
M82 ;absolute extrusion mode
M104 S150 ; set extruder preheat temp
M140 S65 ; set bed temp
M190 S65 ; wait for bed temp
M104 S200 ; set extruder temp
M109 S200 ; wait for extruder temp
M83 ;relative extrusion mode
G1 F1800 E-0.75
;LAYER_COUNT:102
;LAYER:0
M107
G1 F600 Z0.4
G0 F7200 X138.463 Y138.812 Z0.4
;TYPE:SKIRT
G1 F600 Z0.2
G1 F720 E0.75
G1 F1200 X139.045 Y138.247 E0.0349
G1 X139.544 Y137.798 E0.02888
G1 X140.351 Y137.153 E0.04445
G1 X140.973 Y136.702 E0.03306
G1 X141.323 Y136.476 E0.01793
G1 X142.126 Y135.997 E0.04023
G1 X142.587 Y135.74 E0.02271
G1 X143.023 Y135.522 E0.02098
G1 X143.672 Y135.233 E0.03057
G1 X144.265 Y134.987 E0.02763
G1 X144.715 Y134.825 E0.02058
G1 X145.47 Y134.587 E0.03406
G1 X146.1 Y134.41 E0.02816
G1 X146.503 Y134.316 E0.01781
G1 X147.28 Y134.169 E0.03403
G1 X147.988 Y134.056 E0.03085
G1 X148.379 Y134.012 E0.01693
G1 X149.202 Y133.953 E0.0355
G1 X149.752 Y133.93 E0.02369
G1 X150.244 Y133.93 E0.02117
G1 X150.973 Y133.964 E0.0314
G1 X151.643 Y134.013 E0.02891
G1 X152.042 Y134.064 E0.01731
G1 X153.009 Y134.221 E0.04216
G1 X153.518 Y134.318 E0.0223
G1 X153.917 Y134.413 E0.01765
G1 X154.719 Y134.644 E0.03591
G1 X155.347 Y134.842 E0.02833
G1 X155.725 Y134.982 E0.01735
G1 X156.408 Y135.267 E0.03185
G1 X157.062 Y135.562 E0.03087
G1 X157.403 Y135.735 E0.01645
G1 X158.058 Y136.104 E0.03235
G1 X158.714 Y136.493 E0.03282
G1 X158.989 Y136.676 E0.01421
G1 X160.118 Y137.515 E0.06053
G1 X160.444 Y137.786 E0.01824
G1 X161.173 Y138.456 E0.04261
G1 X161.586 Y138.862 E0.02492
G1 X161.848 Y139.143 E0.01653
G1 X162.318 Y139.686 E0.0309
G1 X162.803 Y140.285 E0.03316
G1 X163.035 Y140.597 E0.01673
G1 X163.381 Y141.111 E0.02666
G1 X163.833 Y141.819 E0.03614
G1 X164.023 Y142.149 E0.01639
G1 X164.419 Y142.914 E0.03707
G1 X164.699 Y143.498 E0.02787
G1 X164.858 Y143.873 E0.01753
G1 X165.104 Y144.528 E0.03011
G1 X165.35 Y145.241 E0.03246
G1 X165.466 Y145.63 E0.01747
G1 X165.639 Y146.33 E0.03103
G1 X165.81 Y147.132 E0.03529
G1 X165.87 Y147.472 E0.01486
G1 X165.959 Y148.132 E0.02866
G1 X166.032 Y148.897 E0.03307
G1 X166.054 Y149.282 E0.01659
G1 X166.067 Y150.156 E0.03761
G1 X166.053 Y150.769 E0.02638
G1 X166.031 Y151.155 E0.01664
G1 X165.94 Y152.016 E0.03726
G1 X165.86 Y152.603 E0.02549
G1 X165.802 Y152.92 E0.01387
G1 X165.587 Y153.887 E0.04263
G1 X165.44 Y154.468 E0.02579
G1 X165.325 Y154.843 E0.01688
G1 X165.082 Y155.543 E0.03188
G1 X164.853 Y156.145 E0.02772
G1 X164.661 Y156.588 E0.02078
G1 X164.329 Y157.269 E0.0326
G1 X163.953 Y157.979 E0.03457
G1 X163.756 Y158.313 E0.01669
G1 X163.492 Y158.727 E0.02113
G1 X162.993 Y159.457 E0.03805
G1 X162.746 Y159.788 E0.01777
G1 X162.297 Y160.337 E0.03052
G1 X161.807 Y160.904 E0.03225
G1 X161.516 Y161.209 E0.01814
G1 X160.872 Y161.83 E0.0385
G1 X160.471 Y162.195 E0.02333
G1 X160.15 Y162.462 E0.01797
G1 X159.564 Y162.911 E0.03177
G1 X158.993 Y163.319 E0.0302
G1 X158.68 Y163.521 E0.01603
G1 X157.879 Y164 E0.04016
G1 X157.382 Y164.277 E0.02448
G1 X156.98 Y164.478 E0.01934
G1 X156.327 Y164.769 E0.03076
G1 X155.674 Y165.037 E0.03037
G1 X155.288 Y165.174 E0.01762
G1 X154.53 Y165.413 E0.0342
G1 X153.9 Y165.59 E0.02816
G1 X153.497 Y165.684 E0.01781
G1 X152.72 Y165.831 E0.03403
G1 X152.012 Y165.944 E0.03085
G1 X151.621 Y165.988 E0.01693
G1 X150.798 Y166.047 E0.0355
G1 X150.248 Y166.07 E0.02369
G1 X149.735 Y166.069 E0.02207
G1 X149.027 Y166.036 E0.0305
G1 X148.357 Y165.987 E0.02891
G1 X147.958 Y165.936 E0.01731
G1 X146.993 Y165.779 E0.04207
G1 X146.475 Y165.68 E0.02269
G1 X146.091 Y165.587 E0.017
G1 X145.37 Y165.383 E0.03224
G1 X144.662 Y165.16 E0.03194
G1 X144.275 Y165.018 E0.01774
G1 X143.664 Y164.764 E0.02847
G1 X142.934 Y164.436 E0.03444
G1 X142.625 Y164.28 E0.01489
G1 X141.85 Y163.845 E0.03824
G1 X141.29 Y163.509 E0.0281
G1 X140.927 Y163.268 E0.01875
G1 X140.38 Y162.869 E0.02913
G1 X139.827 Y162.443 E0.03004
G1 X139.608 Y162.259 E0.01231
G1 X138.831 Y161.546 E0.04538
G1 X138.407 Y161.13 E0.02556
G1 X138.153 Y160.855 E0.01611
G1 X137.597 Y160.213 E0.03655
G1 X137.181 Y159.697 E0.02852
G1 X136.959 Y159.395 E0.01613
G1 X136.601 Y158.869 E0.02738
G1 X136.148 Y158.154 E0.03642
G1 X135.974 Y157.848 E0.01515
G1 X135.548 Y157.022 E0.03999
G1 X135.295 Y156.485 E0.02554
G1 X135.141 Y156.125 E0.01685
G1 X134.912 Y155.516 E0.028
G1 X134.645 Y154.744 E0.03515
G1 X134.54 Y154.386 E0.01605
G1 X134.339 Y153.578 E0.03583
G1 X134.204 Y152.964 E0.02705
G1 X134.135 Y152.564 E0.01747
G1 X134.034 Y151.805 E0.03295
G1 X133.966 Y151.096 E0.03065
G1 X133.943 Y150.695 E0.01728
G1 X133.933 Y149.901 E0.03417
G1 X133.947 Y149.248 E0.02811
G1 X133.97 Y148.849 E0.0172
G1 X134.061 Y147.986 E0.03734
G1 X134.132 Y147.47 E0.02241
G1 X134.197 Y147.095 E0.01638
G1 X134.422 Y146.072 E0.04507
G1 X134.555 Y145.557 E0.02289
G1 X134.675 Y145.17 E0.01743
G1 X135.153 Y143.838 E0.0609
G1 X135.3 Y143.489 E0.0163
G1 X135.623 Y142.828 E0.03166
G1 X135.984 Y142.136 E0.03359
G1 X136.184 Y141.792 E0.01712
G1 X136.626 Y141.099 E0.03537
G1 X136.956 Y140.608 E0.02546
G1 X137.223 Y140.25 E0.01922
G1 X137.652 Y139.719 E0.02937
G1 X138.195 Y139.095 E0.03559
G1 X138.463 Y138.812 E0.01677
G0 F7200 X138.776 Y139.135
G1 F1200 X139.346 Y138.582 E0.03417
G1 X139.845 Y138.133 E0.02888
G1 X140.615 Y137.517 E0.04243
G1 X141.218 Y137.08 E0.03204
G1 X141.554 Y136.862 E0.01723
G1 X142.345 Y136.39 E0.03964
G1 X142.806 Y136.133 E0.02271
G1 X143.206 Y135.933 E0.01924
G1 X143.844 Y135.649 E0.03005
G1 X144.437 Y135.403 E0.02763
G1 X144.851 Y135.254 E0.01893
G1 X145.592 Y135.02 E0.03344
G1 X146.202 Y134.848 E0.02727
G1 X146.587 Y134.758 E0.01701
G1 X147.351 Y134.613 E0.03346
G1 X148.038 Y134.503 E0.02994
G1 X148.411 Y134.461 E0.01615
G1 X149.221 Y134.403 E0.03494
G1 X149.771 Y134.38 E0.02369
G1 X150.244 Y134.38 E0.02035
G1 X150.94 Y134.413 E0.02998
G1 X151.587 Y134.46 E0.02791
G1 X151.97 Y134.508 E0.01661
G1 X152.925 Y134.663 E0.04163
G1 X153.414 Y134.756 E0.02142
G1 X153.793 Y134.846 E0.01676
G1 X154.584 Y135.073 E0.03541
G1 X155.191 Y135.264 E0.02738
G1 X155.552 Y135.397 E0.01655
G1 X156.223 Y135.677 E0.03129
G1 X156.859 Y135.964 E0.03002
G1 X157.182 Y136.127 E0.01557
G1 X157.829 Y136.491 E0.03194
G1 X158.465 Y136.868 E0.03181
G1 X158.74 Y137.051 E0.01421
G1 X159.83 Y137.861 E0.05844
G1 X160.156 Y138.132 E0.01824
G1 X160.858 Y138.777 E0.04102
G1 X161.257 Y139.169 E0.02407
G1 X161.508 Y139.438 E0.01583
G1 X161.978 Y139.981 E0.0309
G1 X162.442 Y140.553 E0.03169
G1 X162.662 Y140.849 E0.01587
G1 X163.002 Y141.353 E0.02616
G1 X163.443 Y142.043 E0.03524
G1 X163.623 Y142.356 E0.01554
G1 X164.013 Y143.109 E0.03649
G1 X164.285 Y143.675 E0.02702
G1 X164.437 Y144.031 E0.01666
G1 X164.679 Y144.675 E0.0296
G1 X164.919 Y145.37 E0.03164
G1 X165.029 Y145.738 E0.01653
G1 X165.199 Y146.424 E0.03041
G1 X165.367 Y147.21 E0.03459
G1 X165.424 Y147.532 E0.01407
G1 X165.511 Y148.175 E0.02792
G1 X165.583 Y148.923 E0.03234
G1 X165.604 Y149.289 E0.01577
G1 X165.617 Y150.146 E0.03688
G1 X165.604 Y150.743 E0.0257
G1 X165.583 Y151.108 E0.01573
G1 X165.494 Y151.955 E0.03665
G1 X165.417 Y152.522 E0.02462
G1 X165.359 Y152.839 E0.01387
G1 X165.151 Y153.777 E0.04134
G1 X165.01 Y154.336 E0.02481
G1 X164.9 Y154.695 E0.01616
G1 X164.661 Y155.383 E0.03134
G1 X164.44 Y155.966 E0.02683
G1 X164.248 Y156.409 E0.02078
G1 X163.931 Y157.059 E0.03112
G1 X163.565 Y157.751 E0.03369
G1 X163.376 Y158.072 E0.01603
G1 X163.121 Y158.473 E0.02045
G1 X162.632 Y159.188 E0.03727
G1 X162.397 Y159.503 E0.01691
G1 X161.956 Y160.043 E0.03
G1 X161.482 Y160.593 E0.03124
G1 X161.203 Y160.885 E0.01738
G1 X160.569 Y161.497 E0.03792
G1 X160.183 Y161.849 E0.02248
G1 X159.876 Y162.105 E0.0172
G1 X159.303 Y162.545 E0.03109
G1 X158.748 Y162.941 E0.02934
G1 X158.449 Y163.135 E0.01534
G1 X157.66 Y163.607 E0.03956
G1 X157.163 Y163.884 E0.02448
G1 X156.797 Y164.067 E0.01761
G1 X156.156 Y164.353 E0.0302
G1 X155.524 Y164.613 E0.02941
G1 X155.152 Y164.745 E0.01699
G1 X154.408 Y164.98 E0.03357
G1 X153.798 Y165.152 E0.02727
G1 X153.413 Y165.242 E0.01701
G1 X152.649 Y165.387 E0.03346
G1 X151.962 Y165.497 E0.02994
G1 X151.589 Y165.539 E0.01615
G1 X150.779 Y165.597 E0.03494
G1 X150.229 Y165.62 E0.02369
G1 X149.756 Y165.62 E0.02035
G1 X149.06 Y165.587 E0.02998
G1 X148.413 Y165.54 E0.02791
G1 X148.03 Y165.492 E0.01661
G1 X147.077 Y165.337 E0.04155
G1 X146.581 Y165.243 E0.02172
G1 X146.213 Y165.154 E0.01629
G1 X145.505 Y164.954 E0.03166
G1 X144.816 Y164.737 E0.03108
G1 X144.448 Y164.603 E0.01685
G1 X143.848 Y164.353 E0.02797
G1 X143.137 Y164.034 E0.03353
G1 X142.828 Y163.878 E0.01489
G1 X142.082 Y163.459 E0.03682
G1 X141.522 Y163.123 E0.0281
G1 X141.192 Y162.905 E0.01702
G1 X140.654 Y162.512 E0.02867
G1 X140.116 Y162.098 E0.02921
G1 X139.897 Y161.914 E0.01231
G1 X139.146 Y161.224 E0.04388
G1 X138.737 Y160.824 E0.02462
G1 X138.493 Y160.561 E0.01544
G1 X137.947 Y159.93 E0.03591
G1 X137.543 Y159.43 E0.02766
G1 X137.331 Y159.142 E0.01539
G1 X136.981 Y158.628 E0.02676
G1 X136.539 Y157.931 E0.03551
G1 X136.374 Y157.641 E0.01436
G1 X135.955 Y156.83 E0.03928
G1 X135.708 Y156.307 E0.02489
G1 X135.562 Y155.967 E0.01592
G1 X135.337 Y155.369 E0.02749
G1 X135.077 Y154.617 E0.03424
G1 X134.977 Y154.277 E0.01525
G1 X134.779 Y153.481 E0.0353
G1 X134.644 Y152.867 E0.02705
G1 X134.581 Y152.505 E0.01581
G1 X134.482 Y151.762 E0.03225
G1 X134.415 Y151.07 E0.02992
G1 X134.393 Y150.689 E0.01642
G1 X134.383 Y149.91 E0.03352
G1 X134.396 Y149.273 E0.02742
G1 X134.417 Y148.896 E0.01625
G1 X134.507 Y148.047 E0.03674
G1 X134.576 Y147.546 E0.02176
G1 X134.637 Y147.191 E0.0155
G1 X134.858 Y146.184 E0.04436
G1 X134.985 Y145.69 E0.02195
G1 X135.099 Y145.322 E0.01658
G1 X135.568 Y144.013 E0.05983
G1 X135.715 Y143.664 E0.0163
G1 X136.022 Y143.036 E0.03008
G1 X136.373 Y142.362 E0.0327
G1 X136.563 Y142.034 E0.01631
G1 X136.999 Y141.35 E0.0349
G1 X137.317 Y140.877 E0.02453
G1 X137.584 Y140.519 E0.01922
G1 X137.991 Y140.014 E0.02791
G1 X138.522 Y139.404 E0.0348
G1 X138.776 Y139.135 E0.01592
G0 F7200 X139.09 Y139.458
G1 F1200 X138.849 Y139.713 E0.0151
G1 X138.331 Y140.309 E0.03398
G1 X137.935 Y140.801 E0.02718
G1 X137.678 Y141.146 E0.01851
G1 X137.373 Y141.601 E0.02357
G1 X136.943 Y142.276 E0.03444
G1 X136.762 Y142.588 E0.01552
G1 X136.421 Y143.244 E0.03181
G1 X136.13 Y143.839 E0.0285
G1 X135.983 Y144.188 E0.0163
G1 X135.523 Y145.474 E0.05877
G1 X135.415 Y145.823 E0.01572
G1 X135.294 Y146.296 E0.02101
G1 X135.077 Y147.287 E0.04365
G1 X135.019 Y147.623 E0.01467
G1 X134.953 Y148.108 E0.02106
G1 X134.865 Y148.943 E0.03613
G1 X134.845 Y149.298 E0.0153
G1 X134.833 Y149.919 E0.02673
G1 X134.843 Y150.683 E0.03288
G1 X134.864 Y151.044 E0.01556
G1 X134.93 Y151.718 E0.02914
G1 X135.027 Y152.446 E0.0316
G1 X135.087 Y152.79 E0.01503
G1 X135.218 Y153.384 E0.02617
G1 X135.414 Y154.168 E0.03477
G1 X135.509 Y154.49 E0.01445
G1 X135.762 Y155.222 E0.03333
G1 X135.983 Y155.808 E0.02695
G1 X136.121 Y156.129 E0.01504
G1 X136.362 Y156.637 E0.02419
G1 X136.774 Y157.434 E0.03861
G1 X136.93 Y157.708 E0.01357
G1 X137.361 Y158.387 E0.03461
G1 X137.703 Y158.889 E0.02614
G1 X137.905 Y159.163 E0.01465
G1 X138.297 Y159.647 E0.0268
G1 X138.833 Y160.266 E0.03523
G1 X139.067 Y160.518 E0.0148
G1 X139.46 Y160.902 E0.02364
G1 X140.186 Y161.569 E0.04242
G1 X140.405 Y161.753 E0.01231
G1 X140.928 Y162.155 E0.02838
G1 X141.457 Y162.541 E0.02818
G1 X141.77 Y162.748 E0.01615
G1 X142.313 Y163.073 E0.02723
G1 X143.031 Y163.476 E0.03543
G1 X143.34 Y163.632 E0.01489
G1 X144.032 Y163.943 E0.03265
G1 X144.621 Y164.188 E0.02745
G1 X144.969 Y164.314 E0.01593
G1 X145.64 Y164.525 E0.03027
G1 X146.335 Y164.721 E0.03107
G1 X146.687 Y164.806 E0.01558
G1 X147.16 Y164.895 E0.02071
G1 X148.102 Y165.048 E0.04107
G1 X148.468 Y165.093 E0.01587
G1 X149.092 Y165.138 E0.02692
G1 X149.777 Y165.17 E0.02951
G1 X150.21 Y165.17 E0.01863
G1 X150.76 Y165.147 E0.02369
G1 X151.557 Y165.09 E0.03438
G1 X151.912 Y165.05 E0.01537
G1 X152.578 Y164.943 E0.02903
G1 X153.329 Y164.8 E0.0329
G1 X153.695 Y164.714 E0.01618
G1 X154.285 Y164.547 E0.02639
G1 X155.016 Y164.316 E0.03299
G1 X155.373 Y164.189 E0.0163
G1 X155.984 Y163.937 E0.02844
G1 X156.614 Y163.656 E0.02968
G1 X156.961 Y163.482 E0.0167
G1 X157.441 Y163.214 E0.02366
G1 X158.218 Y162.749 E0.03896
G1 X158.503 Y162.564 E0.01462
G1 X159.041 Y162.179 E0.02847
G1 X159.602 Y161.748 E0.03044
G1 X159.88 Y161.516 E0.01558
G1 X160.266 Y161.164 E0.02248
G1 X160.891 Y160.561 E0.03737
G1 X161.156 Y160.283 E0.01653
G1 X161.607 Y159.758 E0.02978
G1 X162.048 Y159.218 E0.03
G1 X162.271 Y158.919 E0.01605
G1 X162.749 Y158.219 E0.03647
G1 X162.997 Y157.83 E0.01985
G1 X163.177 Y157.523 E0.01531
G1 X163.533 Y156.849 E0.0328
G1 X163.844 Y156.212 E0.0305
G1 X164.019 Y155.806 E0.01902
G1 X164.24 Y155.223 E0.02683
G1 X164.475 Y154.547 E0.0308
G1 X164.579 Y154.205 E0.01538
G1 X164.715 Y153.667 E0.02388
G1 X164.916 Y152.758 E0.04006
G1 X164.974 Y152.441 E0.01387
G1 X165.048 Y151.895 E0.02371
G1 X165.135 Y151.061 E0.03608
G1 X165.155 Y150.717 E0.01483
G1 X165.167 Y150.137 E0.02496
G1 X165.154 Y149.296 E0.03619
G1 X165.134 Y148.949 E0.01496
G1 X165.063 Y148.219 E0.03156
G1 X164.978 Y147.593 E0.02718
G1 X164.924 Y147.288 E0.01333
G1 X164.762 Y146.532 E0.03327
G1 X164.592 Y145.846 E0.03041
G1 X164.488 Y145.499 E0.01559
G1 X164.254 Y144.822 E0.03082
G1 X164.016 Y144.189 E0.0291
G1 X163.879 Y143.87 E0.01494
G1 X163.607 Y143.304 E0.02702
G1 X163.223 Y142.563 E0.03591
G1 X163.053 Y142.268 E0.01465
G1 X162.623 Y141.595 E0.03437
G1 X162.289 Y141.101 E0.02566
G1 X162.081 Y140.821 E0.01501
G1 X161.629 Y140.265 E0.03083
G1 X161.168 Y139.732 E0.03032
G1 X160.929 Y139.477 E0.01504
G1 X160.543 Y139.098 E0.02328
G1 X159.868 Y138.478 E0.03944
G1 X159.542 Y138.207 E0.01824
G1 X158.491 Y137.426 E0.05634
G1 X158.216 Y137.243 E0.01421
G1 X157.6 Y136.878 E0.03081
G1 X156.979 Y136.529 E0.03065
G1 X156.656 Y136.366 E0.01557
G1 X156.038 Y136.087 E0.02918
G1 X155.379 Y135.812 E0.03073
G1 X155.037 Y135.687 E0.01567
G1 X154.449 Y135.502 E0.02652
G1 X153.669 Y135.279 E0.03491
G1 X153.31 Y135.194 E0.01587
G1 X152.841 Y135.105 E0.02054
G1 X151.898 Y134.952 E0.04111
G1 X151.532 Y134.907 E0.01587
G1 X150.908 Y134.862 E0.02692
G1 X150.223 Y134.83 E0.02951
G1 X149.79 Y134.83 E0.01863
G1 X149.24 Y134.853 E0.02369
G1 X148.443 Y134.91 E0.03438
G1 X148.088 Y134.95 E0.01537
G1 X147.422 Y135.057 E0.02903
G1 X146.671 Y135.2 E0.0329
G1 X146.305 Y135.286 E0.01618
G1 X145.715 Y135.453 E0.02639
G1 X144.987 Y135.683 E0.03285
G1 X144.609 Y135.819 E0.01729
G1 X144.016 Y136.065 E0.02763
G1 X143.389 Y136.344 E0.02953
G1 X143.025 Y136.526 E0.01751
G1 X142.564 Y136.783 E0.02271
G1 X141.785 Y137.248 E0.03904
G1 X141.464 Y137.457 E0.01648
G1 X140.879 Y137.881 E0.03109
G1 X140.146 Y138.468 E0.04041
G1 X139.647 Y138.917 E0.02888
G1 X139.09 Y139.458 E0.03341
G0 F7200 X139.403 Y139.781
G1 F1200 X139.177 Y140.021 E0.01419
G1 X138.671 Y140.604 E0.03322
G1 X138.285 Y141.083 E0.02647
G1 X138.052 Y141.397 E0.01683
G1 X137.747 Y141.852 E0.02357
G1 X137.323 Y142.518 E0.03397
G1 X137.151 Y142.814 E0.01473
G1 X136.82 Y143.451 E0.03089
G1 X136.545 Y144.014 E0.02696
G1 X136.398 Y144.363 E0.0163
G1 X135.947 Y145.625 E0.05767
G1 X135.845 Y145.956 E0.0149
G1 X135.73 Y146.407 E0.02003
G1 X135.517 Y147.383 E0.04299
G1 X135.463 Y147.699 E0.01379
G1 X135.399 Y148.169 E0.02041
G1 X135.313 Y148.99 E0.03552
G1 X135.294 Y149.324 E0.0144
G1 X135.283 Y149.927 E0.02595
G1 X135.293 Y150.677 E0.03228
G1 X135.313 Y151.018 E0.0147
G1 X135.378 Y151.674 E0.02837
G1 X135.473 Y152.386 E0.03091
G1 X135.53 Y152.713 E0.01428
G1 X135.657 Y153.287 E0.0253
G1 X135.846 Y154.041 E0.03345
G1 X135.941 Y154.363 E0.01445
G1 X136.187 Y155.075 E0.03241
G1 X136.404 Y155.649 E0.02641
G1 X136.534 Y155.951 E0.01415
G1 X136.762 Y156.43 E0.02283
G1 X137.174 Y157.227 E0.03861
G1 X137.321 Y157.485 E0.01278
G1 X137.741 Y158.146 E0.0337
G1 X138.075 Y158.636 E0.02552
G1 X138.267 Y158.895 E0.01387
G1 X138.647 Y159.364 E0.02597
G1 X139.173 Y159.972 E0.03459
G1 X139.396 Y160.211 E0.01407
