;FLAVOR:Marlin
;TIME:813
;Filament used: 0.646489m
;Layer height: 0.2
;MINX:36.309
;MINY:39.648
;MINZ:0.2
;MAXX:90.595
;MAXY:59.727
;MAXZ:3
;Generated with Cura_SteamEngine 5.2.1
M82 ;absolute extrusion mode
G21 ; set units to millimeters
G90 ; use absolute positioning
M82 ; absolute extrusion mode
M104 S200 ; set extruder temp
M140 S70 ; set bed temp
M190 S70 ; wait for bed temp
M109 S200 ; wait for extruder temp
G28 W ; home all without mesh bed level
G80 ; mesh bed leveling
G92 E0.0 ; reset extruder distance position
G1 Y-3.0 F1000.0 ; go outside print area
G1 X60.0 E9.0 F1000.0 ; intro line
G1 X100.0 E21.5 F1000.0 ; intro line
G92 E0.0 ; reset extruder distance position
G92 E0
G92 E0
G1 F2100 E-0.8
;LAYER_COUNT:15
;LAYER:0
M107
;MESH:CO_1_01_dinRail.stl
G0 F3600 X43.392 Y49.006 Z0.2
;TYPE:WALL-INNER
G1 F2100 E0
G1 F2250 X43.578 Y49.205 E0.00906
G1 X43.656 Y49.503 E0.01931
G1 X43.656 Y51.538 E0.08699
G1 X43.575 Y51.767 E0.09507
G1 X43.375 Y51.973 E0.10462
G1 X43.16 Y52.056 E0.11228
G1 X43.056 Y52.064 E0.11575
G1 X39.106 Y52.064 E0.24713
G1 X38.887 Y52.024 E0.25453
G1 X38.733 Y51.941 E0.26035
G1 X38.184 Y51.392 E0.28618
G1 X38.049 Y51.186 E0.29437
G1 X38.009 Y51.042 E0.29934
G1 X38.009 Y50 E0.334
G1 X38.049 Y49.781 E0.3414
G1 X38.132 Y49.627 E0.34722
G1 X38.681 Y49.078 E0.37304
G1 X38.887 Y48.943 E0.38123
G1 X39.031 Y48.903 E0.38621
G1 X43.155 Y48.903 E0.52337
G1 X43.392 Y49.006 E0.53196
G0 F3600 X43.392 Y48.603
G0 X45.211 Y48.95
G0 X45.216 Y52.07
G0 X46.202 Y53.058
G0 X52.55 Y53.055
G0 X57.245 Y51.259
G0 X57.464 Y51.509
G1 F2250 X57.587 Y51.358 E0.53844
G1 X59.079 Y50.045 E0.60455
G1 X59.4 Y49.896 E0.61632
G1 X74.095 Y49.895 E1.10507
G1 X76.903 Y47.088 E1.23713
G1 X77.098 Y46.958 E1.24493
G1 X77.251 Y46.913 E1.25023
G1 X80.852 Y46.913 E1.37
G1 X81.103 Y46.967 E1.37854
G1 X81.258 Y47.071 E1.38475
G1 X81.873 Y47.684 E1.41363
G1 X82.007 Y47.886 E1.42169
G1 X82.05 Y48.046 E1.4272
G1 X82.049 Y49.251 E1.46728
G1 X82.693 Y49.896 E1.49759
G1 X83.422 Y49.901 E1.52184
G1 X83.715 Y50.024 E1.53241
G1 X85.334 Y51.641 E1.60852
G1 X85.431 Y51.887 E1.61731
G1 X85.431 Y54.564 E1.70635
G1 X85.297 Y54.837 E1.71646
G1 X83.763 Y56.375 E1.78871
G1 X83.577 Y56.501 E1.79618
G1 X83.416 Y56.55 E1.80178
G1 X59.475 Y56.55 E2.59806
G1 X59.219 Y56.493 E2.60679
G1 X59.027 Y56.35 E2.61475
G1 X57.49 Y54.628 E2.69152
G1 X57.384 Y54.377 E2.70058
G1 X57.384 Y51.695 E2.78978
G1 X57.464 Y51.509 E2.79652
G0 F3600 X57.245 Y51.259
G0 X59.159 Y49.659
G0 X73.244 Y47.838
G0 X81.258 Y44.919
G0 X81.258 Y44.461
G1 F2250 X81.103 Y44.565 E2.80273
G1 X80.852 Y44.619 E2.81127
G1 X76.131 Y44.62 E2.96829
G1 X73.268 Y47.482 E3.10293
G1 X72.975 Y47.602 E3.11346
G1 X54.007 Y47.602 E3.74434
G1 X53.785 Y47.561 E3.75185
G1 X53.633 Y47.478 E3.75761
G1 X50.774 Y44.62 E3.89206
G1 X47.794 Y44.619 E3.99118
G1 X47.149 Y45.263 E4.02149
G1 X47.149 Y46.528 E4.06357
G1 X47.794 Y47.172 E4.09388
G1 X48.538 Y47.172 E4.11863
G1 X48.777 Y47.221 E4.12674
G1 X48.963 Y47.347 E4.13422
G1 X52.709 Y51.094 E4.31044
G1 X52.832 Y51.273 E4.31766
G1 X52.89 Y51.628 E4.32963
G1 X52.518 Y52.514 E4.36159
G1 X52.427 Y52.638 E4.3667
G1 X52.259 Y52.76 E4.37361
G1 X51.993 Y52.822 E4.38269
G1 X51.248 Y52.823 E4.40747
G1 F2069 X50.527 Y52.858 E4.43358
G1 F1914.9 X46.549 Y52.857 E4.58904
G1 F2069 X46.124 Y52.647 E4.60619
G1 F2250 X45.627 Y52.148 E4.62962
G1 X45.489 Y51.933 E4.63811
G1 X45.452 Y51.724 E4.64517
G1 X45.452 Y42.927 E4.93776
G1 X45.512 Y42.664 E4.94673
G1 X45.661 Y42.471 E4.95484
G1 X45.898 Y42.346 E4.96376
G1 X46.496 Y42.327 E4.98366
G1 X46.496 Y41.238 E5.01988
G1 X45.305 Y40.048 E5.07587
G1 X42.724 Y40.048 E5.16172
G1 F2272.7 X42.16 Y40.606 E5.18784
G1 X42.751 Y40.451 E5.20796
G1 F2250 X43.006 Y40.602 E5.21782
G1 X43.245 Y40.84 E5.22904
G1 X43.421 Y41.266 E5.24437
G1 X43.422 Y46.58 E5.42111
G1 X43.373 Y46.745 E5.42683
G1 X43.246 Y46.931 E5.43433
G1 X42.681 Y47.496 E5.4609
G1 X42.408 Y47.603 E5.47065
G1 X38.348 Y47.603 E5.60569
G1 X36.709 Y49.242 E5.68278
G1 X36.709 Y51.725 E5.76537
G1 X38.348 Y53.362 E5.84242
G1 X45.827 Y53.363 E6.09117
G1 F2069 X46.549 Y53.328 E6.11731
G1 F1914.9 X50.527 Y53.328 E6.27278
G1 F2069 X50.952 Y53.538 E6.28992
G1 F2250 X52.945 Y55.533 E6.38371
G1 X53.066 Y55.712 E6.3909
G1 X53.115 Y55.931 E6.39836
G1 X53.046 Y56.232 E6.40864
G1 X52.931 Y56.386 E6.41503
G1 X52.747 Y56.506 E6.42233
G1 X52.592 Y56.552 E6.42771
G1 X36.757 Y56.552 E6.95439
G1 X36.71 Y56.599 E6.9566
G1 X36.71 Y59.279 E7.04573
G1 X36.758 Y59.327 E7.04799
G1 X90.149 Y59.327 E8.82378
G1 X90.195 Y59.281 E8.82595
G1 X90.195 Y51.241 E9.09336
G1 X90.195 Y50.235 E9.12682
G1 X87.562 Y47.602 E9.25067
G1 X85.311 Y47.602 E9.32554
G1 X85.073 Y47.499 E9.33416
G1 X84.404 Y46.83 E9.36563
G1 X84.271 Y46.628 E9.37367
G1 X84.229 Y46.472 E9.37905
G1 X84.229 Y42.678 E9.50524
G1 X83.585 Y42.034 E9.53553
G1 X81.598 Y42.034 E9.60161
G1 F2419.4 X80.852 Y42.007 E9.62471
G1 F2608.7 X80.248 Y42.007 E9.64203
G1 X80.594 Y42.353 E9.65607
G1 X80.852 Y42.353 E9.66347
G1 F2419.4 X81.333 Y42.564 E9.67972
G1 F2250 X81.452 Y42.925 E9.69236
G1 X81.453 Y44.094 E9.73124
G1 X81.398 Y44.271 E9.73741
G1 X81.258 Y44.461 E9.74526
G0 F3600 X81.258 Y44.919
G0 X73.244 Y47.838
G0 X59.159 Y49.659
G0 X57.148 Y51.43
G0 X57.784 Y51.771
;TYPE:WALL-OUTER
G1 F2250 X57.851 Y51.658 E9.74962
G1 X59.343 Y50.345 E9.81573
G1 X59.441 Y50.298 E9.81934
G1 X74.261 Y50.295 E10.31226
G1 X77.186 Y47.371 E10.44982
G1 X77.293 Y47.315 E10.45383
G1 X80.936 Y47.313 E10.575
G1 X81.65 Y48.026 E10.60856
G1 X81.649 Y49.417 E10.65483
G1 X82.527 Y50.296 E10.69615
G1 X83.366 Y50.297 E10.72405
G1 X83.456 Y50.333 E10.72728
G1 X85.001 Y51.874 E10.79986
G1 X85.031 Y51.987 E10.80374
G1 X85.028 Y54.494 E10.88713
G1 X84.986 Y54.585 E10.89046
G1 X83.48 Y56.092 E10.96132
G1 X83.373 Y56.148 E10.96534
G1 X59.383 Y56.15 E11.76325
G1 X57.814 Y54.387 E11.84175
G1 X57.787 Y54.317 E11.84424
G1 X57.784 Y51.771 E11.92892
G0 F3600 X57.851 Y51.658
G0 X57.902 Y51.613
G0 X57.44 Y51.087
G0 X53.314 Y56.372
G0 X52.654 Y56.097
G1 F2250 X52.55 Y56.15 E11.9328
G1 X36.591 Y56.152 E12.4636
G1 X36.31 Y56.433 E12.47682
G1 X36.31 Y59.445 E12.577
G1 X36.593 Y59.727 E12.59029
G1 X90.315 Y59.727 E14.37709
G1 X90.595 Y59.446 E14.39028
G1 X90.595 Y51.241 E14.66318
G1 X90.595 Y50.069 E14.70216
G1 X87.728 Y47.202 E14.83702
G1 X85.385 Y47.202 E14.91495
G1 X85.308 Y47.165 E14.91779
G1 X84.658 Y46.511 E14.94846
G1 X84.631 Y46.435 E14.95114
G1 X84.629 Y42.512 E15.08162
G1 X83.751 Y41.634 E15.12292
G1 X79.562 Y41.635 E15.26224
G1 X79.562 Y41.847 E15.26929
G1 X80.439 Y42.725 E15.31057
G1 X80.852 Y42.725 E15.32431
G1 X81.013 Y42.804 E15.33027
G1 X81.052 Y42.925 E15.3345
G1 X81.05 Y44.054 E15.37205
G1 X80.988 Y44.167 E15.37634
G1 X80.852 Y44.219 E15.38118
G1 X75.965 Y44.22 E15.54372
G1 X73.014 Y47.167 E15.68243
G1 X72.933 Y47.2 E15.68534
G1 X53.923 Y47.202 E16.31762
G1 X50.94 Y44.22 E16.45791
G1 X47.628 Y44.219 E16.56806
G1 X46.749 Y45.097 E16.60938
G1 X46.749 Y46.694 E16.6625
G1 X47.628 Y47.572 E16.70382
G1 X48.622 Y47.572 E16.73688
G1 X52.464 Y51.415 E16.91762
G1 X52.485 Y51.558 E16.92243
G1 X52.168 Y52.32 E16.94988
G1 X52.061 Y52.422 E16.9548
G1 X46.549 Y52.422 E17.13813
G1 X46.407 Y52.364 E17.14323
G1 X45.91 Y51.866 E17.16663
G1 X45.855 Y51.761 E17.17057
G1 X45.852 Y42.927 E17.46439
G1 X45.921 Y42.775 E17.46994
G1 X46.011 Y42.727 E17.47334
G1 X46.664 Y42.727 E17.49506
G1 X46.896 Y42.495 E17.50597
G1 X46.896 Y41.072 E17.5533
G1 X45.471 Y39.648 E17.6203
G1 X42.558 Y39.648 E17.71719
G1 X41.481 Y40.726 E17.76787
G1 X41.48 Y41.734 E17.8014
G1 X41.593 Y41.734 E17.80515
G1 X42.44 Y40.886 E17.84502
G1 X42.639 Y40.835 E17.85185
G1 X42.963 Y41.124 E17.86629
G1 X43.021 Y41.266 E17.87139
G1 X43.019 Y46.541 E18.04684
G1 X42.963 Y46.648 E18.05086
G1 X42.432 Y47.172 E18.07567
G1 X42.359 Y47.201 E18.07828
G1 X38.182 Y47.203 E18.21721
G1 X36.309 Y49.076 E18.30531
G1 X36.309 Y51.891 E18.39894
G1 X38.182 Y53.762 E18.48699
G1 X50.527 Y53.763 E18.89759
G1 X50.669 Y53.821 E18.90269
G1 X52.659 Y55.812 E18.99632
G1 X52.715 Y55.945 E19.00112
G1 X52.654 Y56.097 E19.00656
G0 F3600 X52.55 Y56.15
G0 X52.466 Y56.15
G0 X52.466 Y56.852
G0 X53.498 Y55.757
G0 X50.873 Y53.127
G0 X45.941 Y53.141
G0 X43.163 Y52.364
G0 X43.163 Y51.634
G1 F2250 X43.091 Y51.662 E19.00913
G1 X39.106 Y51.664 E19.14167
G1 X38.991 Y51.628 E19.14568
G1 X38.467 Y51.109 E19.17021
G1 X38.411 Y51.002 E19.17423
G1 X38.409 Y50 E19.20756
G1 X38.445 Y49.885 E19.21156
G1 X38.964 Y49.361 E19.23609
G1 X39.071 Y49.305 E19.24011
G1 X43.099 Y49.307 E19.37408
G1 X43.256 Y49.422 E19.38056
G1 X43.254 Y51.499 E19.44964
G1 X43.163 Y51.634 E19.45505
G0 F3600 X43.091 Y51.662
G0 X42.968 Y51.662
G0 X42.968 Y52.364
G0 X43.484 Y49.075
G0 X43.257 Y41.085
G0 X42.581 Y40.423
G0 X41.877 Y40.89
;TYPE:WALL-INNER
G1 F2295.9 X42.16 Y40.606 E19.46812
G0 F3600 X45.076 Y42.88
;TYPE:SKIN
G1 F2250 X45.191 Y42.463 E19.48251
G1 X45.413 Y42.182 E19.49442
G1 X45.801 Y41.979 E19.50898
G1 X46.116 Y41.957 E19.51948
G1 X46.116 Y41.397 E19.53811
G1 X45.146 Y40.428 E19.58371
G1 X43.371 Y40.429 E19.64275
G1 X43.555 Y40.635 E19.65194
G1 X43.801 Y41.227 E19.67326
G1 X43.8 Y46.638 E19.85323
G1 X43.705 Y46.927 E19.86335
G1 X43.514 Y47.201 E19.87446
G1 X42.917 Y47.798 E19.90254
G1 F2064.2 X42.467 Y48.017 E19.92068
G1 F1863.4 X38.553 Y48.019 E20.07787
G1 F1894.7 X38.067 Y48.465 E20.10393
G1 F1910.8 X37.146 Y49.387 E20.15496
G1 F1886.8 X37.124 Y50.006 E20.17953
G1 F1875 X37.125 Y51.519 E20.23992
G1 F1898.7 X37.572 Y52.006 E20.26597
G1 F1910.8 X38.494 Y52.925 E20.31696
G1 F1886.8 X39.112 Y52.948 E20.34148
G1 F1910.8 X43.24 Y52.946 E20.50315
G1 F2064.2 X43.669 Y52.982 E20.51876
G1 F2250 X45.828 Y52.981 E20.59057
G1 X45.941 Y52.971 E20.59434
G1 X45.845 Y52.909 E20.59814
G1 X45.33 Y52.385 E20.62258
G1 X45.129 Y52.059 E20.63532
G1 X45.073 Y51.749 E20.64579
G1 X45.076 Y42.88 E20.94078
G0 F3600 X43.956 Y48.981
G0 X43.882 Y48.981
G1 F2250 X44.036 Y49.475 E20.95799
G1 X44.032 Y51.607 E21.0289
G1 X43.903 Y51.957 E21.04131
G1 X43.615 Y52.263 E21.05528
G1 F2064.2 X43.2 Y52.478 E21.07223
G1 F1906.8 X39.069 Y52.477 E21.23436
G1 F1829.3 X38.726 Y52.43 E21.24852
G1 F1848 X38.492 Y52.277 E21.25984
G1 F1943.8 X37.864 Y51.648 E21.29406
G1 F1848 X37.641 Y51.343 E21.30936
G1 F1829.3 X37.595 Y51.102 E21.3194
G1 F1902.7 X37.596 Y49.963 E21.36419
G1 F1825.6 X37.642 Y49.622 E21.3783
G1 F1844.3 X37.8 Y49.381 E21.38999
G1 F1943.8 X38.425 Y48.758 E21.42397
G1 F1844.3 X38.729 Y48.535 E21.43926
G1 F1825.6 X38.966 Y48.489 E21.44916
G1 F1902.7 X42.507 Y48.487 E21.58843
G1 F2064.2 X43.2 Y48.523 E21.61359
G1 F2250 X43.603 Y48.69 E21.6281
G1 X43.882 Y48.981 E21.6415
G0 F3600 X43.956 Y48.981
G0 X43.884 Y52.292
G0 X43.503 Y52.554
G1 F2250 X43.73 Y52.781 E21.65218
G0 F3600 X43.834 Y52.319
G1 F2250 X44.295 Y52.781 E21.67389
G0 F3600 X44.861 Y52.781
G1 F2250 X44.092 Y52.011 E21.71008
G0 F3600 X44.23 Y51.584
G1 F2250 X45.427 Y52.781 E21.76639
G1 X45.497 Y52.851
G0 F3600 X44.873 Y51.661
G1 F2250 X44.232 Y51.02 E21.79654
G0 F3600 X44.233 Y50.455
G1 F2250 X44.873 Y51.096 E21.82667
G0 F3600 X44.873 Y50.53
G1 F2250 X44.234 Y49.891 E21.85672
G0 F3600 X44.182 Y49.274
G1 F2250 X44.873 Y49.964 E21.8892
G0 F3600 X44.872 Y49.398
G1 F2250 X43.235 Y47.76 E21.96622
G0 F3600 X43.518 Y47.477
G1 F2250 X44.872 Y48.832 E22.02994
G0 F3600 X44.872 Y48.267
G1 F2250 X43.773 Y47.167 E22.08165
G0 F3600 X43.962 Y46.79
G1 F2250 X44.872 Y47.701 E22.12448
G0 F3600 X44.872 Y47.135
G1 F2250 X43.996 Y46.259 E22.16568
G0 F3600 X43.996 Y45.693
G1 F2250 X44.872 Y46.569 E22.20689
G0 F3600 X44.872 Y46.003
G1 F2250 X43.997 Y45.128 E22.24805
G0 F3600 X43.997 Y44.563
G1 F2250 X44.872 Y45.437 E22.28918
G0 F3600 X44.871 Y44.871
G1 F2250 X43.998 Y43.998 E22.33024
G0 F3600 X43.998 Y43.432
G1 F2250 X44.871 Y44.305 E22.37131
G0 F3600 X44.871 Y43.74
G1 F2250 X43.999 Y42.867 E22.41235
G0 F3600 X43.999 Y42.301
G1 F2250 X44.871 Y43.174 E22.45339
G0 F3600 X44.921 Y42.658
G1 F2250 X43.999 Y41.736 E22.49675
G0 F3600 X43.989 Y41.161
G1 F2250 X45.093 Y42.265 E22.54868
G0 F3600 X45.375 Y41.98
G1 F2250 X44.021 Y40.627 E22.61235
G0 F3600 X44.587 Y40.627
G1 F2250 X45.746 Y41.787 E22.66689
G1 X45.816 Y41.857
G0 F3600 X43.657 Y46.852
G0 X42.925 Y48.016
G1 F2250 X43.24 Y48.332 E22.68173
G0 F3600 X45.216 Y52.07
G0 X46.202 Y53.058
G0 X50.873 Y53.127
G0 X53.498 Y55.757
G0 X53.071 Y56.785
G0 X52.873 Y56.866
G1 F2250 X52.649 Y56.93 E22.68947
G1 X37.09 Y56.933 E23.20697
G1 X37.09 Y58.947 E23.27396
G1 X89.815 Y58.947 E25.0276
G1 X89.815 Y51.24 E25.28393
G1 X89.815 Y50.394 E25.31207
G1 X87.403 Y47.983 E25.4255
G1 X85.401 Y47.981 E25.49209
G1 X85.127 Y47.937 E25.50132
G1 X84.789 Y47.754 E25.5141
G1 X84.123 Y47.085 E25.5455
G1 X83.923 Y46.783 E25.55754
G1 X83.851 Y46.526 E25.56642
G1 X83.849 Y42.837 E25.68912
G1 X83.426 Y42.414 E25.70902
G1 X81.673 Y42.414 E25.76732
G1 X81.832 Y42.894 E25.78414
G1 X81.831 Y44.151 E25.82595
G1 X81.724 Y44.465 E25.83698
G1 X81.515 Y44.743 E25.84855
G1 X81.262 Y44.91 E25.85863
G1 X80.888 Y44.995 E25.87139
G1 X76.288 Y45 E26.02438
G1 X73.487 Y47.796 E26.15602
G1 X73.033 Y47.98 E26.17231
G1 X53.975 Y47.979 E26.80618
G1 X53.619 Y47.902 E26.8183
G1 X53.384 Y47.767 E26.82731
G1 X50.615 Y45 E26.95751
G1 X47.953 Y45 E27.04605
G1 X47.529 Y45.423 E27.06597
G1 X47.529 Y46.369 E27.09743
G1 X47.953 Y46.792 E27.11735
G1 X48.573 Y46.795 E27.13797
G1 X48.962 Y46.891 E27.1513
G1 X49.204 Y47.055 E27.16102
G1 X53.001 Y50.854 E27.33967
G1 X53.178 Y51.115 E27.35016
G1 X53.251 Y51.347 E27.35825
G1 X53.259 Y51.632 E27.36773
G1 X53.189 Y51.897 E27.37685
G1 X52.854 Y52.695 E27.40563
G1 X52.676 Y52.924 E27.41528
G1 X52.384 Y53.118 E27.42694
G1 X52.039 Y53.198 E27.43872
G1 X51.159 Y53.205 E27.46799
G1 X53.305 Y55.361 E27.56916
G1 X53.427 Y55.597 E27.578
G1 X53.495 Y55.901 E27.58836
G1 X53.475 Y56.159 E27.59697
G1 X53.366 Y56.437 E27.6069
G1 X53.167 Y56.684 E27.61745
G1 X52.873 Y56.866 E27.62895
G0 F3600 X57.133 Y51.319
G1 F2250 X57.334 Y51.073 E27.63952
G1 X58.828 Y49.758 E27.70571
G1 X59.089 Y49.596 E27.71593
G1 X59.341 Y49.518 E27.7247
G1 X73.936 Y49.514 E28.21014
G1 X76.663 Y46.795 E28.33822
G1 X76.954 Y46.606 E28.34976
G1 X77.193 Y46.535 E28.35805
G1 X80.888 Y46.537 E28.48095
G1 X81.262 Y46.622 E28.4937
G1 X81.517 Y46.79 E28.50386
G1 X82.153 Y47.427 E28.5338
G1 X82.357 Y47.734 E28.54606
G1 X82.43 Y47.993 E28.55501
G1 X82.429 Y49.092 E28.59156
G1 X82.852 Y49.516 E28.61148
G1 X83.445 Y49.518 E28.6312
G1 X83.736 Y49.6 E28.64126
G1 X83.953 Y49.725 E28.64959
G1 X85.613 Y51.388 E28.72774
G1 X85.811 Y51.804 E28.74306
G1 X85.809 Y54.618 E28.83666
G1 X85.593 Y55.077 E28.85353
G1 X84.033 Y56.644 E28.92707
G1 X83.76 Y56.833 E28.93812
G1 X83.474 Y56.928 E28.94814
G1 X59.433 Y56.926 E29.74775
G1 X59.022 Y56.816 E29.7619
G1 X58.737 Y56.599 E29.77381
G1 X57.229 Y54.905 E29.84925
G1 X57.077 Y54.654 E29.85901
G1 X57.004 Y54.296 E29.87116
G1 X57.006 Y51.774 E29.95504
G1 X57.035 Y51.564 E29.96209
G1 X57.133 Y51.319 E29.97087
G0 F3600 X53.071 Y56.785
G0 X37.816 Y58.746
G1 F2250 X37.289 Y58.22 E29.99563
G0 F3600 X37.289 Y57.654
G1 F2250 X38.381 Y58.746 E30.047
G0 F3600 X38.947 Y58.746
G1 F2250 X37.333 Y57.132 E30.12291
G0 F3600 X37.899 Y57.132
G1 F2250 X39.513 Y58.746 E30.19883
G0 F3600 X40.078 Y58.746
G1 F2250 X38.465 Y57.132 E30.27473
G0 F3600 X39.03 Y57.132
G1 F2250 X40.644 Y58.746 E30.35064
G0 F3600 X41.21 Y58.746
G1 F2250 X39.595 Y57.132 E30.42658
G0 F3600 X40.161 Y57.132
G1 F2250 X41.775 Y58.746 E30.5025
G0 F3600 X42.341 Y58.746
G1 F2250 X40.726 Y57.131 E30.57847
G0 F3600 X41.292 Y57.131
G1 F2250 X42.907 Y58.746 E30.65443
G0 F3600 X43.472 Y58.746
G1 F2250 X41.857 Y57.131 E30.7304
G0 F3600 X42.422 Y57.13
G1 F2250 X44.038 Y58.746 E30.80641
G0 F3600 X44.604 Y58.746
G1 F2250 X42.988 Y57.13 E30.88242
G0 F3600 X43.554 Y57.13
G1 F2250 X45.169 Y58.746 E30.95841
G0 F3600 X45.735 Y58.746
G1 F2250 X44.119 Y57.13 E31.03442
G0 F3600 X44.684 Y57.129
G1 F2250 X46.301 Y58.746 E31.11048
G0 F3600 X46.867 Y58.746
G1 F2250 X45.25 Y57.129 E31.18654
G0 F3600 X45.816 Y57.129
G1 F2250 X47.432 Y58.746 E31.26257
G0 F3600 X47.998 Y58.746
G1 F2250 X46.381 Y57.129 E31.33863
G0 F3600 X46.946 Y57.129
G1 F2250 X48.564 Y58.746 E31.41471
G0 F3600 X49.129 Y58.746
