;FLAVOR:Marlin
;TIME:3685
;Filament used: 3.34662m
;Layer height: 0.2
;MINX:36.553
;MINY:53.119
;MINZ:0.2
;MAXX:82.741
;MAXY:131.293
;MAXZ:25
;Generated with Cura_SteamEngine 5.2.1
M82 ;absolute extrusion mode
G21 ; set units to millimeters
G90 ; use absolute positioning
M82 ; absolute extrusion mode
M104 S230 ; set extruder temp
M140 S80 ; set bed temp
M190 S80 ; wait for bed temp
M109 S230 ; wait for extruder temp
G28 W ; home all without mesh bed level
G80 ; mesh bed leveling
G92 E0.0 ; reset extruder distance position
G1 Y-3.0 F1000.0 ; go outside print area
G1 X60.0 E9.0 F1000.0 ; intro line
G1 X100.0 E21.5 F1000.0 ; intro line
G92 E0.0 ; reset extruder distance position
G92 E0
G92 E0
G1 F2100 E-0.8
;LAYER_COUNT:125
;LAYER:0
M107
G0 F3600 X45.908 Y54.879 Z0.2
;TYPE:SKIRT
G1 F2100 E0
G1 F2400 X46.44 Y54.508 E0.02157
G1 X47.092 Y54.126 E0.04671
G1 X47.555 Y53.898 E0.06387
G1 X48.441 Y53.539 E0.09567
G1 X49.132 Y53.339 E0.11959
G1 X50.125 Y53.175 E0.15307
G1 X51.273 Y53.119 E0.1913
G1 X52.857 Y53.258 E0.24418
G1 X55.608 Y53.46 E0.33593
G1 X58.334 Y53.583 E0.42669
G1 X61.029 Y53.629 E0.51634
G1 X63.794 Y53.596 E0.60831
G1 X66.485 Y53.49 E0.69788
G1 X69.239 Y53.301 E0.78969
G1 X70.074 Y53.223 E0.81759
G1 X71.413 Y53.123 E0.86224
G1 X72.033 Y53.142 E0.88288
G1 X72.981 Y53.231 E0.91455
G1 X73.513 Y53.321 E0.93249
G1 X74.167 Y53.502 E0.95506
G1 X74.965 Y53.787 E0.98324
G1 X75.587 Y54.076 E1.00606
G1 X76.279 Y54.484 E1.03277
G1 X76.777 Y54.824 E1.05283
G1 X77.62 Y55.528 E1.08936
G1 X78.356 Y56.368 E1.12651
G1 X78.663 Y56.774 E1.14344
G1 X79.219 Y57.677 E1.17871
G1 X79.555 Y58.437 E1.20634
G1 X79.85 Y59.253 E1.2352
G1 X80.005 Y59.828 E1.25501
G1 X80.153 Y60.714 E1.28489
G1 X80.17 Y60.779 E1.28712
G1 X80.431 Y62.483 E1.34446
G1 X80.918 Y65.161 E1.43499
G1 X81.481 Y67.827 E1.52562
G1 X82.115 Y70.461 E1.61573
G1 X82.321 Y71.224 E1.64201
G1 X82.57 Y72.219 E1.67613
G1 X82.726 Y73.221 E1.70985
G1 X82.741 Y73.982 E1.73517
G1 X82.741 Y77.594 E1.85531
G1 X82.731 Y78.295 E1.87862
G1 X82.668 Y78.914 E1.89932
G1 X82.356 Y80.562 E1.9551
G1 X81.899 Y83.234 E2.04527
G1 X81.517 Y85.927 E2.13573
G1 X81.21 Y88.645 E2.22671
G1 X80.979 Y91.369 E2.31763
G1 X80.827 Y94.069 E2.40758
G1 X80.741 Y98.161 E2.54371
G1 X80.741 Y117.013 E3.17073
G1 X80.731 Y117.744 E3.19504
G1 X80.683 Y118.278 E3.21288
G1 X80.557 Y118.8 E3.23074
G1 X80.355 Y119.296 E3.24855
G1 X80.082 Y119.758 E3.2664
G1 X79.742 Y120.173 E3.28424
G1 X79.345 Y120.533 E3.30207
G1 X78.887 Y120.838 E3.32037
G1 X77.795 Y121.448 E3.36197
G1 X75.428 Y122.817 E3.45292
G1 X73.13 Y124.236 E3.54275
G1 X70.836 Y125.741 E3.634
G1 X68.593 Y127.307 E3.72499
G1 X66.151 Y129.121 E3.82616
G1 X65.285 Y129.775 E3.86226
G1 X64.43 Y130.28 E3.89529
G1 X63.796 Y130.59 E3.91876
G1 X62.932 Y130.9 E3.94929
G1 X62.038 Y131.148 E3.98015
G1 X60.924 Y131.264 E4.0174
G1 X60.064 Y131.293 E4.04602
G1 X59.032 Y131.178 E4.08056
G1 X58.22 Y131.015 E4.1081
G1 X57.74 Y130.869 E4.12479
G1 X56.991 Y130.582 E4.15147
G1 X56.53 Y130.367 E4.16838
G1 X55.791 Y129.956 E4.19651
G1 X55.306 Y129.622 E4.2161
G1 X54.257 Y128.791 E4.26061
G1 X53.505 Y128.181 E4.29281
G1 X51.338 Y126.52 E4.38362
G1 X49.121 Y124.916 E4.47464
G1 X46.863 Y123.378 E4.56551
G1 X44.546 Y121.895 E4.657
G1 X41.475 Y120.04 E4.77633
G1 X41.01 Y119.707 E4.79536
G1 X40.496 Y119.272 E4.81775
G1 X40.069 Y118.844 E4.83786
G1 X39.602 Y118.29 E4.86196
G1 X37.954 Y116.197 E4.95056
G1 X37.362 Y115.464 E4.9819
G1 X37.057 Y115.023 E4.99973
G1 X36.821 Y114.541 E5.01758
G1 X36.66 Y114.03 E5.0354
G1 X36.553 Y113.217 E5.06268
G1 X36.553 Y111.387 E5.12354
G1 X36.564 Y110.677 E5.14716
G1 X36.61 Y110.158 E5.16449
G1 X36.877 Y108.509 E5.22005
G1 X37.259 Y105.828 E5.31012
G1 X37.567 Y103.115 E5.40094
G1 X37.799 Y100.393 E5.4918
G1 X37.952 Y97.702 E5.58145
G1 X38.032 Y94.902 E5.67461
G1 X38.041 Y93.548 E5.71965
G1 X38.041 Y74.158 E6.36456
G1 X38.05 Y70.633 E6.4818
G1 X38.125 Y69.733 E6.51184
G1 X38.232 Y69.113 E6.53277
G1 X38.428 Y68.369 E6.55836
G1 X38.658 Y67.739 E6.58066
G1 X38.943 Y67.14 E6.60273
G1 X40.2 Y64.761 E6.69222
G1 X41.425 Y62.289 E6.78398
G1 X42.928 Y58.987 E6.90465
G1 X43.285 Y58.176 E6.93412
G1 X43.828 Y57.132 E6.97326
G1 X44.387 Y56.38 E7.00442
G1 X45.078 Y55.598 E7.03913
G1 X45.908 Y54.879 E7.07566
G0 F3600 X46.178 Y55.176
G1 F2400 X46.642 Y54.853 E7.09446
G1 X47.494 Y54.354 E7.1273
G1 X48.56 Y53.92 E7.16558
G1 X49.216 Y53.731 E7.18829
G1 X50.171 Y53.573 E7.22048
G1 X51.269 Y53.52 E7.25704
G1 X52.85 Y53.658 E7.30983
G1 X55.56 Y53.858 E7.40021
G1 X58.309 Y53.982 E7.49173
G1 X61.062 Y54.028 E7.58331
G1 X63.815 Y53.996 E7.67488
G1 X66.495 Y53.89 E7.76409
G1 X69.265 Y53.701 E7.85643
G1 X70.051 Y53.626 E7.8827
G1 X71.032 Y53.55 E7.91542
G1 X71.786 Y53.52 E7.94052
G1 X72.944 Y53.629 E7.9792
G1 X73.416 Y53.709 E7.99513
G1 X74.032 Y53.879 E8.01638
G1 X74.843 Y54.171 E8.04505
G1 X75.399 Y54.428 E8.06542
G1 X76.076 Y54.828 E8.09158
G1 X76.533 Y55.14 E8.10998
G1 X77.335 Y55.811 E8.14476
G1 X78.051 Y56.627 E8.18087
G1 X78.353 Y57.026 E8.19751
G1 X78.866 Y57.867 E8.23028
G1 X79.178 Y58.573 E8.25595
G1 X79.473 Y59.389 E8.28481
G1 X79.612 Y59.9 E8.30242
G1 X79.774 Y60.839 E8.33411
G1 X80.036 Y62.549 E8.39165
G1 X80.52 Y65.21 E8.48161
G1 X81.09 Y67.911 E8.57342
G1 X81.719 Y70.526 E8.66288
G1 X81.933 Y71.321 E8.69026
G1 X82.179 Y72.301 E8.72387
G1 X82.327 Y73.254 E8.75595
G1 X82.341 Y73.982 E8.78016
G1 X82.341 Y77.589 E8.90013
G1 X82.331 Y78.29 E8.92345
G1 X82.275 Y78.839 E8.94181
G1 X81.973 Y80.432 E8.99573
G1 X81.502 Y83.182 E9.08853
G1 X81.123 Y85.863 E9.17859
G1 X80.812 Y88.603 E9.27031
G1 X80.58 Y91.346 E9.36186
G1 X80.427 Y94.067 E9.45251
G1 X80.341 Y98.134 E9.58781
G1 X80.341 Y117.008 E10.21556
G1 X80.331 Y117.739 E10.23987
G1 X80.284 Y118.242 E10.25668
G1 X80.158 Y118.732 E10.2735
G1 X79.957 Y119.196 E10.29032
G1 X79.686 Y119.622 E10.30712
G1 X79.35 Y120 E10.32394
G1 X78.887 Y120.38 E10.34386
G1 X77.6 Y121.099 E10.39289
G1 X75.238 Y122.465 E10.48364
G1 X72.906 Y123.904 E10.57478
G1 X70.609 Y125.411 E10.66616
G1 X68.371 Y126.974 E10.75695
G1 X65.891 Y128.816 E10.8597
G1 X65.061 Y129.442 E10.89428
G1 X64.226 Y129.936 E10.92654
G1 X63.768 Y130.159 E10.94349
G1 X62.727 Y130.565 E10.98065
G1 X61.764 Y130.774 E11.01343
G1 X60.883 Y130.866 E11.04289
G1 X60.082 Y130.892 E11.06954
G1 X59.076 Y130.78 E11.10321
G1 X58.124 Y130.587 E11.13552
G1 X56.921 Y130.126 E11.17837
G1 X55.988 Y129.608 E11.21386
G1 X55.554 Y129.308 E11.23141
G1 X54.509 Y128.481 E11.27573
G1 X53.755 Y127.869 E11.30803
G1 X51.553 Y126.181 E11.40031
G1 X49.351 Y124.589 E11.49069
G1 X47.082 Y123.043 E11.58201
G1 X44.79 Y121.576 E11.67252
G1 X41.681 Y119.698 E11.79332
G1 X41.269 Y119.402 E11.8102
G1 X40.755 Y118.967 E11.83259
G1 X40.375 Y118.586 E11.85049
G1 X39.839 Y117.948 E11.87821
G1 X38.239 Y115.913 E11.96431
G1 X37.674 Y115.213 E11.99423
G1 X37.388 Y114.795 E12.01107
G1 X37.172 Y114.338 E12.02788
G1 X37.03 Y113.853 E12.04469
G1 X36.954 Y113.213 E12.06613
G1 X36.953 Y111.393 E12.12666
G1 X36.968 Y110.453 E12.15793
G1 X37.272 Y108.573 E12.22127
G1 X37.658 Y105.863 E12.31232
G1 X37.966 Y103.158 E12.40287
G1 X38.196 Y100.449 E12.49329
G1 X38.352 Y97.702 E12.5848
G1 X38.431 Y94.937 E12.67681
G1 X38.441 Y93.551 E12.72291
G1 X38.441 Y74.159 E13.36789
G1 X38.45 Y70.655 E13.48443
G1 X38.524 Y69.766 E13.5141
G1 X38.619 Y69.215 E13.5327
G1 X38.815 Y68.471 E13.55829
G1 X39.019 Y67.911 E13.57811
G1 X39.366 Y67.189 E13.60475
G1 X40.577 Y64.903 E13.6908
G1 X41.773 Y62.489 E13.7804
G1 X43.292 Y59.152 E13.90235
G1 X43.643 Y58.356 E13.93128
G1 X44.019 Y57.615 E13.95892
G1 X44.284 Y57.189 E13.97561
G1 X44.691 Y56.64 E13.99834
G1 X45.362 Y55.881 E14.03203
G1 X46.178 Y55.176 E14.0679
G1 F2100 E13.2679
G0 F3600 X48.006 Y57.711
;TYPE:SUPPORT
G1 F2100 E14.0679
G1 F2400 X48.006 Y69.13 E14.4477
G0 F3600 X45.339 Y69.13
G1 F2400 X45.339 Y66.621 E14.53114
G0 F3600 X45.043 Y66.675
G1 F2400 X77.221 Y66.675 E15.60139
G0 F3600 X77.221 Y69.342
G1 F2400 X76.516 Y69.342 E15.62484
G0 F3600 X74.676 Y69.13
G1 F2400 X74.676 Y57.651 E16.00663
G0 F3600 X75.705 Y58.674
G1 F2400 X67.54 Y58.674 E16.2782
G0 F3600 X66.675 Y60.56
G1 F2400 X66.675 Y62.817 E16.35327
G0 F3600 X67.086 Y64.008
G1 F2400 X70.941 Y64.008 E16.48149
G0 F3600 X72.009 Y64.086
G1 F2400 X72.009 Y69.13 E16.64925
G0 F3600 X69.342 Y69.13
G1 F2400 X69.342 Y62.485 E16.87026
G0 F3600 X69.236 Y61.341
G1 F2400 X66.583 Y61.341 E16.9585
G0 F3600 X69.342 Y60.917
G1 F2400 X69.342 Y57.172 E17.08306
G0 F3600 X72.009 Y56.657
G1 F2400 X72.009 Y59.309 E17.17127
G0 F3600 X73.998 Y61.341
G1 F2400 X76.682 Y61.341 E17.26054
G0 F3600 X76.156 Y64.008
G1 F2400 X72.29 Y64.008 E17.38912
G1 F2100 E16.58912
G0 F3600 X66.675 Y66.62
G1 F2100 E17.38912
G1 F2400 X66.675 Y69.13 E17.4726
G0 F3600 X64.008 Y69.13
G1 F2400 X64.008 Y66.62 E17.55609
G0 F3600 X61.341 Y66.62
G1 F2400 X61.341 Y69.13 E17.63957
G0 F3600 X58.674 Y69.13
G1 F2400 X58.674 Y66.62 E17.72305
G0 F3600 X56.007 Y65.949
G1 F2400 X56.007 Y69.13 E17.82885
G0 F3600 X53.34 Y69.13
G1 F2400 X53.34 Y62.677 E18.04348
G0 F3600 X53.496 Y61.341
G1 F2400 X56.181 Y61.341 E18.13279
G0 F3600 X56.007 Y60.327
G1 F2400 X56.007 Y63.054 E18.22349
G0 F3600 X55.645 Y64.008
G1 F2400 X51.793 Y64.008 E18.3516
G0 F3600 X50.673 Y64.069
G1 F2400 X50.673 Y69.13 E18.51993
G1 F2100 E17.71993
G0 F3600 X50.673 Y69.085
G0 X50.436 Y64.008
G1 F2100 E18.51993
G1 F2400 X46.607 Y64.008 E18.64729
G0 F3600 X46.08 Y61.341
G1 F2400 X48.735 Y61.341 E18.73559
G0 F3600 X50.673 Y59.336
G1 F2400 X50.673 Y56.661 E18.82456
G0 F3600 X53.34 Y57.134
G1 F2400 X53.34 Y60.706 E18.94337
G0 F3600 X55.204 Y58.674
G1 F2400 X47.045 Y58.674 E19.21474
G1 F2100 E18.41474
G0 F3600 X42.672 Y67.906
G1 F2100 E19.21474
G1 F2400 X42.672 Y70.212 E19.29144
G1 F2100 E18.49144
G0 F3600 X41.8 Y69.342
G1 F2100 E19.29144
G1 F2400 X44.265 Y69.342 E19.37342
G1 F2100 E18.57342
G0 F3600 X44.251 Y69.301
G0 X43.313 Y69.706
G0 X42.336 Y70.458
G0 X41.595 Y71.426
G0 X41.132 Y72.553
G0 X40.977 Y73.424
G0 X40.977 Y111.266
G0 X41.109 Y112.021
G0 X41.15 Y112.014
G1 F2100 E19.37342
G1 F2400 X40.072 Y112.014 E19.40928
G1 F2100 E18.60928
G0 F3600 X41.682 Y114.681
G1 F2100 E19.40928
G1 F2400 X42.923 Y114.681 E19.45055
G0 F3600 X42.672 Y114.469
G1 F2400 X42.672 Y116.487 E19.51767
G0 F3600 X43.848 Y117.348
G1 F2400 X77.221 Y117.348 E20.62766
G0 F3600 X74.676 Y117.78
G1 F2400 X74.676 Y115.57 E20.70117
G0 F3600 X72.009 Y115.57
G1 F2400 X72.009 Y117.78 E20.77467
G0 F3600 X69.342 Y117.78
G1 F2400 X69.342 Y115.57 E20.84818
G0 F3600 X66.675 Y115.57
G1 F2400 X66.675 Y118.172 E20.93472
G0 F3600 X65.32 Y120.015
G1 F2400 X61.499 Y120.015 E21.06181
G1 X61.341 Y119.944
G1 X61.341 Y115.57 E21.20729
G0 F3600 X58.674 Y115.57
G1 F2400 X58.674 Y120.328 E21.36554
G0 F3600 X59.255 Y120.015
G1 F2400 X55.482 Y120.015 E21.49103
G0 F3600 X55.314 Y122.682
G1 F2400 X57.472 Y122.682 E21.5628
G0 F3600 X58.674 Y125.044
G1 F2400 X58.674 Y127.47 E21.64349
G0 F3600 X59.152 Y125.349
G1 F2400 X56.058 Y125.349 E21.7464
G1 X56.007 Y125.247
G1 X56.007 Y115.57 E22.06826
G0 F3600 X53.34 Y115.57
G1 F2400 X53.34 Y117.87 E22.14476
G0 F3600 X50.673 Y117.78
G1 F2400 X50.673 Y115.57 E22.21826
G0 F3600 X48.006 Y115.57
G1 F2400 X48.006 Y117.78 E22.29177
G0 F3600 X45.339 Y117.751
G1 F2400 X45.339 Y115.57 E22.36431
G1 F2100 E21.56431
G0 F3600 X45.339 Y115.615
G0 X64.008 Y115.615
G0 X64.008 Y115.57
G1 F2100 E22.36431
G1 F2400 X64.008 Y126.241 E22.71922
G0 F3600 X64.716 Y125.349
G1 F2400 X61.621 Y125.349 E22.82216
G0 F3600 X61.341 Y125.441
G1 F2400 X61.341 Y127.682 E22.8967
G1 F2100 E22.0967
G0 F3600 X63.294 Y122.682
G1 F2100 E22.8967
G1 F2400 X65.454 Y122.682 E22.96854
G1 F2100 E22.16854
;MESH:CO-1-03-motorControllersMount.stl
G0 F3600 X65.454 Y115.615
G0 X65.454 Y114.53
G0 X72.277 Y111.112
G0 X72.976 Y110.558
G0 X73.512 Y109.534
G0 X76.713 Y77.822
G1 F2100 E22.96854
G0 F3600 X76.94 Y77.684
;TYPE:WALL-INNER
G1 F2400 X77.141 Y77.65 E22.97532
G1 X78.541 Y77.65 E23.02189
G1 X78.541 Y73.728 E23.15233
G1 X78.491 Y73.184 E23.1705
G1 X78.332 Y72.586 E23.19108
G1 X78.019 Y71.914 E23.21574
G1 X77.453 Y71.238 E23.24506
G1 X76.846 Y70.812 E23.26973
G1 X76.299 Y70.552 E23.28987
G1 X76.025 Y70.466 E23.29942
G1 X75.356 Y70.351 E23.322
G1 X45.436 Y70.35 E24.31715
G1 X44.763 Y70.467 E24.33987
G1 X44.488 Y70.552 E24.34944
G1 X43.946 Y70.807 E24.36936
G1 X43.336 Y71.233 E24.39411
G1 X42.768 Y71.908 E24.42345
G1 X42.444 Y72.592 E24.44862
G1 X42.357 Y72.866 E24.45818
G1 X42.241 Y73.536 E24.4808
G1 X42.242 Y111.159 E25.73215
G1 X42.358 Y111.827 E25.7547
G1 X42.443 Y112.103 E25.7643
G1 X42.765 Y112.788 E25.78948
G1 X43.235 Y113.35 E25.81384
G1 X43.798 Y113.822 E25.83828
G1 X44.483 Y114.148 E25.86351
G1 X44.758 Y114.234 E25.87309
G1 X45.426 Y114.35 E25.89564
G1 X76.541 Y114.35 E26.93053
G1 X76.541 Y78.25 E28.13122
G1 X76.597 Y77.996 E28.13988
G1 X76.738 Y77.805 E28.14777
G1 X76.94 Y77.684 E28.1556
G0 F3600 X76.94 Y77.35
G0 X72.585 Y73.242
G0 X72.416 Y73.486
G1 F2400 X72.917 Y73.855 E28.1763
G1 X73.26 Y74.242 E28.1935
G1 X73.456 Y74.564 E28.20604
G1 X73.663 Y75.103 E28.22524
G1 X73.74 Y75.552 E28.24039
G1 X73.737 Y109.021 E29.35357
G1 X73.676 Y109.531 E29.37066
G1 X73.474 Y110.094 E29.39055
G1 X73.131 Y110.618 E29.41138
G1 X72.89 Y110.872 E29.42303
G1 X72.354 Y111.257 E29.44498
G1 X71.74 Y111.481 E29.46672
G1 X71.367 Y111.55 E29.47933
G1 X47.412 Y111.55 E30.27608
G1 X46.95 Y111.454 E30.29177
G1 X46.497 Y111.282 E30.30789
G1 X46.163 Y111.091 E30.32069
G1 X45.7 Y110.685 E30.34117
G1 X45.35 Y110.181 E30.36158
G1 X45.14 Y109.653 E30.38048
G1 X45.042 Y109.178 E30.39661
G1 X45.045 Y75.678 E31.51082
G1 X45.126 Y75.09 E31.53056
G1 X45.24 Y74.761 E31.54215
G1 X45.507 Y74.264 E31.56091
G1 X45.684 Y74.036 E31.57051
G1 X46.041 Y73.712 E31.58654
G1 X46.41 Y73.459 E31.60143
G1 X46.937 Y73.25 E31.62028
G1 X47.412 Y73.151 E31.63642
G1 X71.213 Y73.154 E32.42804
G1 X71.833 Y73.246 E32.44889
G1 X72.416 Y73.486 E32.46986
G0 F3600 X72.585 Y73.242
G0 X73.275 Y73.9
G0 X76.241 Y78.182
G0 X76.941 Y78.182
;TYPE:WALL-OUTER
G1 F2400 X77.079 Y78.05 E32.47621
G1 X78.941 Y78.05 E32.53814
G1 X78.941 Y73.728 E32.68189
G1 X78.884 Y73.106 E32.70267
G1 X78.71 Y72.449 E32.72527
G1 X78.432 Y71.853 E32.74715
G1 X78.255 Y71.573 E32.75816
G1 X77.831 Y71.066 E32.78015
G1 X77.586 Y70.842 E32.79119
G1 X77.048 Y70.465 E32.81304
G1 X76.445 Y70.179 E32.83523
G1 X76.119 Y70.076 E32.84661
G1 X75.39 Y69.951 E32.87121
G1 X45.402 Y69.95 E33.86861
G1 X44.67 Y70.077 E33.89332
G1 X44.344 Y70.178 E33.90467
G1 X43.745 Y70.459 E33.92668
G1 X43.197 Y70.842 E33.94892
G1 X42.959 Y71.059 E33.95963
G1 X42.526 Y71.573 E33.98198
G1 X42.356 Y71.843 E33.99259
G1 X42.07 Y72.446 E34.01479
G1 X41.967 Y72.772 E34.02616
G1 X41.841 Y73.502 E34.0508
G1 X41.842 Y111.193 E35.30441
G1 X41.968 Y111.921 E35.32898
G1 X42.069 Y112.247 E35.34033
G1 X42.352 Y112.85 E35.36249
G1 X42.523 Y113.122 E35.37317
G1 X42.951 Y113.634 E35.39537
G1 X43.462 Y114.063 E35.41756
G1 X43.734 Y114.235 E35.42826
G1 X44.337 Y114.521 E35.45046
G1 X44.663 Y114.624 E35.46183
G1 X45.392 Y114.75 E35.48644
G1 X76.941 Y114.75 E36.53576
G1 X76.941 Y78.182 E37.75202
G0 F3600 X77.079 Y78.05
G0 X77.089 Y78.05
G0 X77.089 Y77.35
G0 X73.028 Y73.621
G0 X71.822 Y72.987
G0 X47.4 Y72.912
G0 X45.843 Y73.489
G0 X46.306 Y74.012
G1 F2400 X46.61 Y73.806 E37.76423
G1 X47.115 Y73.614 E37.7822
G1 X47.443 Y73.553 E37.7933
G1 X71.165 Y73.551 E38.5823
G1 X71.691 Y73.62 E38.59994
G1 X72.187 Y73.814 E38.61766
G1 X72.618 Y74.121 E38.63526
G1 X72.945 Y74.489 E38.65163
G1 X73.085 Y74.718 E38.66056
G1 X73.268 Y75.191 E38.67742
G1 X73.34 Y75.574 E38.69039
G1 X73.34 Y108.973 E39.80124
G1 X73.282 Y109.462 E39.81762
G1 X73.091 Y109.976 E39.83586
G1 X72.803 Y110.389 E39.8526
G1 X72.58 Y110.612 E39.86309
G1 X72.186 Y110.886 E39.87906
G1 X71.667 Y111.087 E39.89757
G1 X71.341 Y111.148 E39.9086
G1 X47.441 Y111.147 E40.70351
G1 X47.092 Y111.08 E40.71533
G1 X46.606 Y110.892 E40.73267
G1 X46.387 Y110.759 E40.74119
G1 X46.01 Y110.425 E40.75794
G1 X45.696 Y109.981 E40.77603
G1 X45.514 Y109.51 E40.79282
G1 X45.444 Y109.148 E40.80509
G1 X45.442 Y75.726 E41.91671
G1 X45.508 Y75.21 E41.93401
G1 X45.594 Y74.947 E41.94321
G1 X45.835 Y74.493 E41.96031
